!!!!SEGMENT: pl-cz--iii-693--007_volckmer-augustin--litaniae-lauretanae-a-agnus-dei.krn
!!!cenid: 18xx:1132
!!!COM: Volckmer, Augustin
!!!COM-rismID: pe30020656
!!!CDT: 1755-~1820
!!!CNT:
!!!OPR: Litaniae Lauretanae A
!!!OTL: Agnus Dei
!!!OMV: 007
!!!PDT:
!!!AGN: Sacred; Mass
!!!SMS-siglum: PL-CZ
!!!SMS-shelfmark: III-693
!!!SMS-shelfwork: 001-007 M
!!!SMS-variant:
!!!SMS-altvar:
!!!NIFC-rismSourceID: 300001388
!!!NIFC-islandoraID: pl-cz:40462
!!!URL-pdf-islandora: https://repozytorium.nifc.pl/islandora/object/pl-cz%3A40462/datastream/PDF/view
!!!URL-scan:
!!!ONB-nifc: UWAGA: części Litanii: Kyrie, Mater christi, Virgo prudentissima, Rosa mystica, Salus infirmorum, Regina angelorum, Agnus Dei, Miserere nobis
!!!AIN: 1 alto 1 bass 2 cor 3 oboe 1 organ 1 soprn 1 tenor 1 timpa 2 viola 2 violn
!!!key: A
**kern	**dynam	**fb	**kern	**kern	**kern	**dynam	**kern	**dynam	**kern	**text	**kern	**text	**kern	**text	**kern	**text	**kern	**dynam	**kern	**dynam	**kern	**kern	**dynam	**kern	**dynam	**kern
*part15	*part15	*	*part14	*part13	*part12	*part12	*part11	*part11	*part10	*part10	*part9	*part9	*part8	*part8	*part7	*part7	*part6	*part6	*part5	*part5	*part4	*part3	*part3	*part2	*part2	*part1
*staff15	*	*	*staff14	*staff13	*staff12	*	*staff11	*	*staff10	*staff10	*staff9	*staff9	*staff8	*staff8	*staff7	*staff7	*staff6	*	*staff5	*	*staff4	*staff3	*	*staff2	*	*staff1
*group	*group	*	*group4	*group4	*group4	*group4	*group4	*group4	*group3	*group3	*group3	*group3	*group3	*group3	*group3	*group3	*group	*group	*group2	*group2	*group2	*group1	*group1	*group1	*group1	*group1
*I"Organo	*	*	*I"Viola obl:	*I"Viola. Solo.	*I"Violino Secondo	*	*I"Violino Primo.	*	*I"Baſso	*	*I"Tenore	*	*I"Alto.	*	*I"Ȼănto	*	*I"Tym̈pano ex D.	*	*I"Cornu Secondo in A.	*	*I"Cornu Primo ex Adur	*I"Oboe Secondo	*	*I"Oboe Primo	*	*I"Oboe Primo Solo
*I'org	*	*	*I'iSol:vla	*I'vla	*I'vl 2	*	*I'vl 1	*	*I'B	*	*I'T	*	*I'A	*	*I'S	*	*I'timp	*	*I'cor 2	*	*I'cor 1	*I'ob 2	*	*I'ob 1	*	*I'iSol:ob
*Iorgan	*	*	*Iviola	*Iviola	*Ivioln	*	*Ivioln	*	*Ibass	*	*Itenor	*	*Ialto	*	*Isoprn	*	*Itimpa	*	*Icor	*	*Icor	*Ioboe	*	*Ioboe	*	*Ioboe
*ICklav	*	*	*ICstr	*ICstr	*ICstr	*	*ICstr	*	*ICvox	*	*ICvox	*	*ICvox	*	*ICvox	*	*ICidio	*	*ICbras	*	*ICbras	*ICww	*	*ICww	*	*ICww
*clefF4	*	*	*clefC3	*clefC3	*clefG2	*	*clefG2	*	*clefF4	*	*clefC4	*	*clefC3	*	*clefC1	*	*clefF4	*	*clefG2	*	*clefG2	*clefG2	*	*clefG2	*	*clefG2
*	*	*	*	*	*	*	*	*	*	*	*	*	*	*	*	*	*	*	*ITrd2c3	*	*ITrd2c3	*	*	*	*	*
*k[f#c#g#]	*	*	*k[f#c#g#]	*k[f#c#g#]	*k[f#c#g#]	*	*k[f#c#g#]	*	*k[f#c#g#]	*	*k[f#c#g#]	*	*k[f#c#g#]	*	*k[f#c#g#]	*	*k[f#c#g#]	*	*k[f#c#g#]	*	*k[f#c#g#]	*k[f#c#g#]	*	*k[f#c#g#]	*	*k[f#c#g#]
*A:	*	*	*A:	*A:	*A:	*	*A:	*	*A:	*	*A:	*	*A:	*	*A:	*	*A:	*	*A:	*	*A:	*A:	*	*A:	*	*A:
*M3/2	*	*	*M3/2	*M3/2	*M3/2	*	*M3/2	*	*M3/2	*	*M3/2	*	*M3/2	*	*M3/2	*	*M3/2	*	*M3/2	*	*M3/2	*M3/2	*	*M3/2	*	*M3/2
!	!	!	!	!	!	!	!	!	!	!	!LO:TX:t=P:problem=w źródle kolejność i wysokość znaków przykluczowych - c# F# G#	!	!	!	!	!	!	!	!	!	!	!	!	!	!	!
!	!	!	!	!	!	!	!	!	!	!	!LO:TX:a:i:t=Solo	!	!	!	!	!	!LO:TX:t=P:problem=brak znaków przykluczowych	!	!LO:TX:a:i:t=Corno in A adagio	!	!LO:TX:a:i:t=Agnus in A Corni Adagio	!	!	!	!	!
!LO:TX:a:i:t=Adagio molto	!	!	!LO:TX:a:i:t=Adagio	!LO:TX:t=P:problem=partia występuje w części "Benedictus"	!LO:TX:a:i:t=adagio molto	!	!LO:TX:a:i:t=adagio	!	!	!	!LO:TX:a:i:t=adagio molto	!	!LO:TX:a:i:t=Adagio	!	!LO:TX:a:i:t=adagio molto	!	!LO:TX:t=P:problem=brak przedtaktu	!	!	!	!	!LO:TX:a:i:t=Adagio molto	!	!LO:TX:a:i:t=Adagio	!	!LO:TX:t=P:problem=partia występuje w częściach "Rosa Mystica" oraz "Salus infirmorum"
!	!	!	!	!	!	!	!	!	!	!	!	!	!LO:TX:a:t=P:problem=w źródle kolejność i wysokość znaków przykluczowych - g# c# f#	!	!LO:TX:a:t=P:problem=w źródle kolejność i wysokość znaków przykluczowych - cc# f# g#	!	!	!	!	!	!	!	!	!	!	!
2r	.	.	2r	2ryy	2e/	.	2e/	.	2r	.	2r	.	2r	.	2r	.	2ryy	.	2r	.	2r	2r	.	2r	.	2ryy
=1	=1	=1	=1	=1	=1	=1	=1	=1	=1	=1	=1	=1	=1	=1	=1	=1	=1	=1	=1	=1	=1	=1	=1	=1	=1	=1
*	*	*above	*2\right	*	*	*	*	*	*	*	*	*	*	*	*	*	*	*	*	*	*	*	*	*	*	*
!	!	!	!	!	!	!	!	!	!LO:TX:a:i:t=dolce	!	!	!	!LO:TX:a:i:t=55 Pauſse	!	!LO:TX:a:t=55	!	!LO:TX:a:t=55	!	!	!	!	!	!	!	!	!
1E	.	.	1A	1.ryy	1c#	.	1a	.	00.r	.	1.r	.	00.r	.	1.r	.	1.r	.	00.r	.	00.r	00.r	.	00.r	.	1.ryy
2EE/	.	.	2e\	.	2d/	.	4b/	.	.	.	.	.	.	.	.	.	.	.	.	.	.	.	.	.	.	.
.	.	.	.	.	.	.	4g#/	.	.	.	.	.	.	.	.	.	.	.	.	.	.	.	.	.	.	.
=2	=2	=2	=2	=2	=2	=2	=2	=2	=2	=2	=2	=2	=2	=2	=2	=2	=2	=2	=2	=2	=2	=2	=2	=2	=2	=2
2AA/	.	.	2e\	1.ryy	2c#/	.	2a/	.	.	.	1.r	.	.	.	1.r	.	1.r	.	.	.	.	.	.	.	.	1.ryy
*	*	*	*	*	*2\right	*	*2\right	*	*	*	*	*	*	*	*	*	*	*	*	*	*	*	*	*	*	*
2r	.	.	2e\	.	2cc#\	.	2ee\	.	.	.	.	.	.	.	.	.	.	.	.	.	.	.	.	.	.	.
2r	.	.	2d\	.	2b\	.	2dd\	.	.	.	.	.	.	.	.	.	.	.	.	.	.	.	.	.	.	.
=3	=3	=3	=3	=3	=3	=3	=3	=3	=3	=3	=3	=3	=3	=3	=3	=3	=3	=3	=3	=3	=3	=3	=3	=3	=3	=3
*2\right	*	*	*	*	*	*	*	*	*	*	*	*	*	*	*	*	*	*	*	*	*	*	*	*	*	*
2E\	.	.	1d	1.ryy	1b	.	1dd	.	.	.	1.r	.	.	.	1.r	.	1.r	.	.	.	.	.	.	.	.	1.ryy
2G#\	.	.	.	.	.	.	.	.	.	.	.	.	.	.	.	.	.	.	.	.	.	.	.	.	.	.
2A\	.	.	2c#\	.	2a\	.	2cc#\	.	.	.	.	.	.	.	.	.	.	.	.	.	.	.	.	.	.	.
=4	=4	=4	=4	=4	=4	=4	=4	=4	=4	=4	=4	=4	=4	=4	=4	=4	=4	=4	=4	=4	=4	=4	=4	=4	=4	=4
2D\	.	.	4c#\	1.ryy	4e/	.	4cc#\	.	.	.	1.r	.	.	.	1.r	.	1.r	.	.	.	.	.	.	.	.	1.ryy
.	.	.	4d\	.	4d/	.	4b\	.	.	.	.	.	.	.	.	.	.	.	.	.	.	.	.	.	.	.
2E\	.	.	2e\	.	2c#/	.	2a/	.	.	.	.	.	.	.	.	.	.	.	.	.	.	.	.	.	.	.
2EE/	.	.	2e\	.	2B/	.	2g#/	.	.	.	.	.	.	.	.	.	.	.	.	.	.	.	.	.	.	.
=5	=5	=5	=5	=5	=5	=5	=5	=5	=5	=5	=5	=5	=5	=5	=5	=5	=5	=5	=5	=5	=5	=5	=5	=5	=5	=5
*	*	*	*	*	*	*	*	*	*	*	*	*	*	*	*	*	*	*	*	*	*2\right	*	*	*	*	*
2AA/	.	.	2e\	1.ryy	2c#/	.	2a/	.	1.r	.	2r	.	00.r	.	1.r	.	1.r	.	2A/	.	2a\	00.r	.	00.r	.	1.ryy
2r	.	.	2r	.	2r	.	4r	.	.	.	4r	.	.	.	.	.	.	.	2r	.	2r	.	.	.	.	.
.	.	.	.	.	.	.	4e/	.	.	.	(4E/	A-	.	.	.	.	.	.	.	.	.	.	.	.	.	.
!	!	!	!	!	!LO:TX:a:t=Vox	!	!	!	!	!	!	!	!	!	!	!	!	!	!	!	!	!	!	!	!	!
!	!	!	!	!	!	!	!	!LO:DY:b:t=po&colon;	!	!	!	!	!	!	!	!	!	!	!	!	!	!	!	!	!	!
2r	.	.	2r	.	2r	.	4a/	p	.	.	4A/	.	.	.	.	.	.	.	2r	.	2r	.	.	.	.	.
.	.	.	.	.	.	.	4cc#/	.	.	.	4c#\)	-gnus	.	.	.	.	.	.	.	.	.	.	.	.	.	.
=6	=6	=6	=6	=6	=6	=6	=6	=6	=6	=6	=6	=6	=6	=6	=6	=6	=6	=6	=6	=6	=6	=6	=6	=6	=6	=6
*	*	*	*	*	*	*	*	*	*2\right	*	*2\right	*	*	*	*	*	*	*	*	*	*	*	*	*	*	*
!	!	!	!	!	!	!LO:DY:b:t=po&colon;:rj	!	!	!	!	!	!	!	!	!	!	!	!	!	!	!	!	!	!	!	!
2AA/	.	.	2A/	1.ryy	(1cc#	p	(1ee	.	1c#	A-	(1e	a-	.	.	1.r	.	1.r	.	2A/	.	1a	.	.	.	.	1.ryy
2C#/	.	.	2c#\	.	.	.	.	.	.	.	.	.	.	.	.	.	.	.	2c#/	.	.	.	.	.	.	.
2E\	.	.	2e\	.	2b\)	.	2dd\)	.	2B\	-gnus	2d\)	-gnus	.	.	.	.	.	.	2e/	.	2b\	.	.	.	.	.
!LO:LB:g=original	!	!	!LO:LB:g=original	!	!	!	!	!	!	!	!	!	!	!	!	!	!	!	!	!	!	!	!	!	!	!
=7	=7	=7	=7	=7	=7	=7	=7	=7	=7	=7	=7	=7	=7	=7	=7	=7	=7	=7	=7	=7	=7	=7	=7	=7	=7	=7
2A\	.	.	2a\	1.ryy	(8cc#\L	.	(8ee\L	.	8c#\L	de-	8e\L	de-	.	.	1.r	.	1.r	.	2e/	.	2b\	.	.	.	.	1.ryy
.	.	.	.	.	8b\	.	8dd\	.	8B\	.	8d\	.	.	.	.	.	.	.	.	.	.	.	.	.	.	.
.	.	.	.	.	8a\	.	8cc#\	.	8A\	.	8c#\	.	.	.	.	.	.	.	.	.	.	.	.	.	.	.
.	.	.	.	.	8b\J)	.	8dd\J)	.	8B\J	.	8d\J	.	.	.	.	.	.	.	.	.	.	.	.	.	.	.
.	.	.	.	.	.	.	8qqdd/	.	8qqB/	.	8qqd/	.	.	.	.	.	.	.	.	.	.	.	.	.	.	.
2AA/	.	.	2A/	.	2a\	.	2cc#\	.	(2A\	-i	2c#\	-i	.	.	.	.	.	.	2A/	.	2cc#\	.	.	.	.	.
!	!	!	!	!	!	!	!	!	!	!	!LO:SIC:v:s=qui	!	!	!	!	!	!	!	!	!	!	!	!	!	!	!
2r	.	.	2r	.	(4cc#\	.	(4ee\	.	4c#\)	.	(4d\	qoi	.	.	.	.	.	.	2r	.	2r	.	.	.	.	.
!	!	!	!	!	!	!	!	!	!LO:SIC:v:s=qui	!	!	!	!	!	!	!	!	!	!	!	!	!	!	!	!	!
.	.	.	.	.	4a\)	.	4cc#\)	.	4A\	qoi	4c#\)	.	.	.	.	.	.	.	.	.	.	.	.	.	.	.
!	!	!	!	!	!LO:LB:g=original	!	!LO:LB:g=original	!	!	!	!	!	!	!	!	!	!	!	!	!	!	!	!	!	!	!
=8	=8	=8	=8	=8	=8	=8	=8	=8	=8	=8	=8	=8	=8	=8	=8	=8	=8	=8	=8	=8	=8	=8	=8	=8	=8	=8
2D\	.	.	2f#\	1.ryy	2d/	.	(4cc#\	.	2D\	tol-	(4c#\	tol-	.	.	1.r	.	1.r	.	2r	.	2r	.	.	.	.	1.ryy
.	.	.	.	.	.	.	4b\)	.	.	.	4B\)	.	.	.	.	.	.	.	.	.	.	.	.	.	.	.
2E\	.	.	2e\	.	2c#/	.	(4b\	.	2C#\	.	(4B\	.	.	.	.	.	.	.	2r	.	2r	.	.	.	.	.
.	.	.	.	.	.	.	4a\)	.	.	.	4A\)	.	.	.	.	.	.	.	.	.	.	.	.	.	.	.
2EE/	.	.	2e\	.	2B/	.	(4a\	.	2BB\	.	(4A\	.	.	.	.	.	.	.	2e/	.	2b\	.	.	.	.	.
.	.	.	.	.	.	.	4g#\)	.	.	.	4G#\)	.	.	.	.	.	.	.	.	.	.	.	.	.	.	.
!	!	!	!	!	!	!	!	!	!	!	!LO:LB:g=original	!	!	!	!	!	!	!	!	!	!	!	!	!	!	!
=9	=9	=9	=9	=9	=9	=9	=9	=9	=9	=9	=9	=9	=9	=9	=9	=9	=9	=9	=9	=9	=9	=9	=9	=9	=9	=9
*	*	*	*	*	*	*	*	*	*	*	*	*	*	*	*	*	*	*	*2\right	*	*	*	*	*	*	*
2AA/	.	.	2e\	1.ryy	4c#/	.	(4a\	.	4C#\	.	4A\	.	00.r	.	1.r	.	1.r	.	2a\	.	2cc#\	0.r	.	0.r	.	1.ryy
.	.	.	.	.	8e/L	.	8b\L	.	8G#\L	.	8B\L	.	.	.	.	.	.	.	.	.	.	.	.	.	.	.
.	.	.	.	.	8a/J	.	8cc#\J	.	8A\J	.	8c#\J	.	.	.	.	.	.	.	.	.	.	.	.	.	.	.
2E\	.	.	2e\	.	2g#/	.	2b\)	.	2G#\	-lis	2B\	-lis	.	.	.	.	.	.	2e/	.	2b\	.	.	.	.	.
4r	.	.	4r	.	4r	.	4r	.	4r	.	4r	.	.	.	.	.	.	.	2r	.	2r	.	.	.	.	.
4G#\	.	.	4e\	.	4b\	.	4dd\	.	4B\	pec-	4d\	pec-	.	.	.	.	.	.	.	.	.	.	.	.	.	.
!	!	!	!	!	!	!	!	!	!LO:LB:g=original	!	!	!	!	!	!	!	!	!	!	!	!	!	!	!	!	!
=10	=10	=10	=10	=10	=10	=10	=10	=10	=10	=10	=10	=10	=10	=10	=10	=10	=10	=10	=10	=10	=10	=10	=10	=10	=10	=10
2A\	.	.	2e\	1.ryy	(4b\	.	(4dd\	.	4B\	-ca-	(4d\	-ca-	.	.	1.r	.	1.r	.	2r	.	2r	.	.	.	.	1.ryy
.	.	.	.	.	4a\)	.	4cc#\)	.	4A\	.	4c#\)	.	.	.	.	.	.	.	.	.	.	.	.	.	.	.
2D\	.	.	2d\	.	(4a\	.	(4cc#\	.	4A\	-ta	(4c#\	-ta	.	.	.	.	.	.	2r	.	2r	.	.	.	.	.
.	.	.	.	.	4d/)	.	4b\)	.	4D\	.	4B\)	.	.	.	.	.	.	.	.	.	.	.	.	.	.	.
4E\	.	.	4e\	.	(8d/L	.	(8b\L	.	8D/L	mun-	(8B\L	mun-	.	.	.	.	.	.	2e/	.	2b\	.	.	.	.	.
.	.	.	.	.	8c#/)	.	8a\)	.	8C#/	.	8A\)	.	.	.	.	.	.	.	.	.	.	.	.	.	.	.
4EE/	.	.	4e\	.	(8c#/	.	(8a\	.	8C#/	.	(8A\	.	.	.	.	.	.	.	.	.	.	.	.	.	.	.
.	.	.	.	.	8B/J)	.	8g#\J)	.	8BB/J	.	8G#\J)	.	.	.	.	.	.	.	.	.	.	.	.	.	.	.
=11	=11	=11	=11	=11	=11	=11	=11	=11	=11	=11	=11	=11	=11	=11	=11	=11	=11	=11	=11	=11	=11	=11	=11	=11	=11	=11
2AA/	.	.	1e	1.ryy	2B/	.	2g#/	.	(2BB/	-di	(2G#/	-di	.	.	1.r	.	1.r	.	2e/	.	2b\	1.r	.	1.r	.	1.ryy
2A\	.	.	.	.	2c#/	.	2a/	.	2C#/)	.	2A/)	.	.	.	.	.	.	.	2a\	.	2cc#\	.	.	.	.	.
2r	.	.	2r	.	2r	.	2r	.	2r	.	2r	.	.	.	.	.	.	.	2r	.	2r	.	.	.	.	.
!	!	!	!	!	!	!	!	!	!	!	!	!	!	!	!	!	!	!	!LO:LB:g=original	!	!	!	!	!	!	!
=12	=12	=12	=12	=12	=12	=12	=12	=12	=12	=12	=12	=12	=12	=12	=12	=12	=12	=12	=12	=12	=12	=12	=12	=12	=12	=12
!	!	!	!	!	!	!	!	!	!LO:N:vis=1	!	!	!	!	!	!	!	!	!	!	!	!	!	!LO:DY:b:t=pp&colon;	!	!LO:DY:b:t=pp&colon;	!
4r	.	.	4r	1.ryy	4r	.	4r	.	1.d	par-	1.f#	par-	.	.	1.r	.	1.r	.	4r	.	4r	1.dd	pp	1.ff#	pp	1.ryy
4D\	.	.	4d\	.	4a/	.	4ff#\	.	.	.	.	.	.	.	.	.	.	.	4A/	.	4a\	.	.	.	.	.
4D\	.	.	4d\	.	4a/	.	4ff#\	.	.	.	.	.	.	.	.	.	.	.	4A/	.	4a\	.	.	.	.	.
4D\	.	.	4d\	.	4a/	.	4ff#\	.	.	.	.	.	.	.	.	.	.	.	4A/	.	4a\	.	.	.	.	.
4D\	.	.	4d\	.	4a/	.	4ff#\	.	.	.	.	.	.	.	.	.	.	.	4A/	.	4a\	.	.	.	.	.
4D\	.	.	4d\	.	4a/	.	4ff#\	.	.	.	.	.	.	.	.	.	.	.	4A/	.	4a\	.	.	.	.	.
!	!	!	!	!	!	!	!	!	!	!	!	!	!	!	!	!	!	!	!	!	!LO:LB:g=original	!	!	!	!	!
=13	=13	=13	=13	=13	=13	=13	=13	=13	=13	=13	=13	=13	=13	=13	=13	=13	=13	=13	=13	=13	=13	=13	=13	=13	=13	=13
*	*	*	*	*	*	*	*	*	*	*	*	*	*	*	*	*	*	*	*	*	*	*2\right	*	*2\right	*	*
2AA/	.	.	2c#\	1.ryy	2a/	.	2ee\	.	2c#\	-ce	2e\	-ce	00.r	.	1.r	.	1.r	.	2A/	.	2a\	2cc#\	.	2ee\	.	1.ryy
!	!	!	!	!	!	!	!	!LO:DY:b:t=for	!	!	!	!	!	!	!	!	!	!	!	!	!	!	!	!	!	!
2r	.	.	2r	.	2r	.	(8a\L	f	2r	.	2r	.	.	.	.	.	.	.	2r	.	2r	2r	.	2r	.	.
.	.	.	.	.	.	.	8b\	.	.	.	.	.	.	.	.	.	.	.	.	.	.	.	.	.	.	.
.	.	.	.	.	.	.	8cc#\	.	.	.	.	.	.	.	.	.	.	.	.	.	.	.	.	.	.	.
.	.	.	.	.	.	.	8dd\J)	.	.	.	.	.	.	.	.	.	.	.	.	.	.	.	.	.	.	.
2r	.	.	2r	.	2r	.	(8ee\L	.	2r	.	2r	.	.	.	.	.	.	.	2r	.	2r	2r	.	2r	.	.
.	.	.	.	.	.	.	8ff#\	.	.	.	.	.	.	.	.	.	.	.	.	.	.	.	.	.	.	.
.	.	.	.	.	.	.	8gg#\	.	.	.	.	.	.	.	.	.	.	.	.	.	.	.	.	.	.	.
.	.	.	.	.	.	.	8aa\J)	.	.	.	.	.	.	.	.	.	.	.	.	.	.	.	.	.	.	.
=14	=14	=14	=14	=14	=14	=14	=14	=14	=14	=14	=14	=14	=14	=14	=14	=14	=14	=14	=14	=14	=14	=14	=14	=14	=14	=14
2r	.	.	1g#	1.ryy	1b	.	1dd	.	1B	no-	1d	no-	.	.	1.r	.	1.r	.	1e	.	1b	1b	.	1dd	.	1.ryy
2E\	.	.	.	.	.	.	.	.	.	.	.	.	.	.	.	.	.	.	.	.	.	.	.	.	.	.
!LO:SIC:v:s=2A	!	!	!	!	!	!	!	!	!	!	!	!	!	!	!	!	!	!	!	!	!	!	!	!	!	!
2G#\	.	.	2e\	.	2a/	.	2cc#\	.	2A\	-bis	2c#\	-bis	.	.	.	.	.	.	2a\	.	2cc#\	2a/	.	2cc#\	.	.
!LO:LB:g=original	!	!	!LO:LB:g=original	!	!	!	!	!	!	!	!	!	!	!	!	!	!	!	!	!	!	!	!	!	!	!
=15	=15	=15	=15	=15	=15	=15	=15	=15	=15	=15	=15	=15	=15	=15	=15	=15	=15	=15	=15	=15	=15	=15	=15	=15	=15	=15
!	!	!	!	!	!	!	!	!	!	!	!	!	!	!	!	!	!	!	!	!	!	!	!	!LO:TX:a:B:t=t	!	!
2E\	.	.	2e\	1.ryy	(8b/L	.	(8dd\L	.	4A\	do-	8d\L	do-	.	.	1.r	.	1.r	.	2a\	.	2cc#\	2a/	.	2cc#\	.	1.ryy
.	.	.	.	.	8a/	.	8cc#\	.	.	.	8c#\J	.	.	.	.	.	.	.	.	.	.	.	.	.	.	.
.	.	.	.	.	8g#/	.	8b\	.	8G#\L	-mi-	8B\L	-mi-	.	.	.	.	.	.	.	.	.	.	.	.	.	.
.	.	.	.	.	8a/J)	.	8cc#\J	.	8A\J	.	8c#\J	.	.	.	.	.	.	.	.	.	.	.	.	.	.	.
2EE/	.	.	2e\	.	2g#/	.	2b\)	.	2G#\	-ne	2B\	-ne	.	.	.	.	.	.	2e/	.	2b\	2g#/	.	2b\	.	.
2r	.	.	2r	.	2r	.	2r	.	2r	.	2r	.	.	.	.	.	.	.	2r	.	2r	2r	.	2r	.	.
!	!	!	!	!	!	!	!	!	!	!	!LO:LB:g=original	!	!	!	!	!	!	!	!	!	!	!	!	!	!	!
!	!	!	!	!	!LO:LB:g=original	!	!LO:LB:g=original	!	!	!	!	!	!	!	!	!	!	!	!	!	!	!	!	!	!	!
=16	=16	=16	=16	=16	=16	=16	=16	=16	=16	=16	=16	=16	=16	=16	=16	=16	=16	=16	=16	=16	=16	=16	=16	=16	=16	=16
!	!LO:DY:b:t=po&colon;	!	!	!	!	!LO:DY:b:t=po	!	!	!	!	!	!	!	!	!	!	!	!	!	!	!	!	!	!	!	!
4BB/|>	p	7 #	4f#\	1.ryy	4a'/	p	4dd#X\|	p	0.r	.	(8d#X\L	par-	.	.	1.r	.	1.r	.	00.r	.	00.r	00.r	.	00.r	.	1.ryy
.	.	.	.	.	.	.	.	.	.	.	8e\	.	.	.	.	.	.	.	.	.	.	.	.	.	.	.
4BB/|>	.	.	4f#\|	.	4a'/	.	4dd#\|	.	.	.	8d#\	.	.	.	.	.	.	.	.	.	.	.	.	.	.	.
.	.	.	.	.	.	.	.	.	.	.	8c#\J)	.	.	.	.	.	.	.	.	.	.	.	.	.	.	.
4BB/|>	.	.	4f#\|	.	4a'/	.	4dd#\|	.	.	.	(8B\L	.	.	.	.	.	.	.	.	.	.	.	.	.	.	.
.	.	.	.	.	.	.	.	.	.	.	8A#X\	.	.	.	.	.	.	.	.	.	.	.	.	.	.	.
4BB/|>	.	.	4f#\'	.	4a'/	.	4dd#\|	.	.	.	8B\	.	.	.	.	.	.	.	.	.	.	.	.	.	.	.
.	.	.	.	.	.	.	.	.	.	.	8c#\J)	.	.	.	.	.	.	.	.	.	.	.	.	.	.	.
4BB/	.	.	4f#'\	.	4a'/	.	4dd#\'	.	.	.	(8d#\L	.	.	.	.	.	.	.	.	.	.	.	.	.	.	.
.	.	.	.	.	.	.	.	.	.	.	8e\	.	.	.	.	.	.	.	.	.	.	.	.	.	.	.
4BB/	.	.	4f#'\	.	4a'/	.	4dd#\'	.	.	.	8f#\	.	.	.	.	.	.	.	.	.	.	.	.	.	.	.
.	.	.	.	.	.	.	.	.	.	.	8d#\J)	.	.	.	.	.	.	.	.	.	.	.	.	.	.	.
=17	=17	=17	=17	=17	=17	=17	=17	=17	=17	=17	=17	=17	=17	=17	=17	=17	=17	=17	=17	=17	=17	=17	=17	=17	=17	=17
4BB/	.	6 4	4e\	1.ryy	4g#/|	.	4ee\	.	.	.	8e\L	.	00.r	.	1.r	.	1.r	.	.	.	.	.	.	.	.	1.ryy
.	.	.	.	.	.	.	.	.	.	.	8f#\	.	.	.	.	.	.	.	.	.	.	.	.	.	.	.
4BB/	.	.	4e'\	.	4g#/|	.	4ee\|	.	.	.	8e\	.	.	.	.	.	.	.	.	.	.	.	.	.	.	.
.	.	.	.	.	.	.	.	.	.	.	8d#X\J	.	.	.	.	.	.	.	.	.	.	.	.	.	.	.
4BB/	.	.	4e'\	.	4g#/|	.	4ee\|	.	.	.	8e\L	.	.	.	.	.	.	.	.	.	.	.	.	.	.	.
.	.	.	.	.	.	.	.	.	.	.	8B\	.	.	.	.	.	.	.	.	.	.	.	.	.	.	.
4BB/	.	.	4e'\	.	4g#/|	.	4ee\|	.	.	.	8c#\	.	.	.	.	.	.	.	.	.	.	.	.	.	.	.
.	.	.	.	.	.	.	.	.	.	.	8d#\J	.	.	.	.	.	.	.	.	.	.	.	.	.	.	.
4BB/	.	.	4e'\	.	4g#/|	.	4ee\|	.	.	.	8e\L	.	.	.	.	.	.	.	.	.	.	.	.	.	.	.
.	.	.	.	.	.	.	.	.	.	.	8f#\	.	.	.	.	.	.	.	.	.	.	.	.	.	.	.
4BB/	.	.	4e'\	.	4g#/|	.	4ee\|	.	.	.	8g#\	.	.	.	.	.	.	.	.	.	.	.	.	.	.	.
.	.	.	.	.	.	.	.	.	.	.	8e\J	.	.	.	.	.	.	.	.	.	.	.	.	.	.	.
=18	=18	=18	=18	=18	=18	=18	=18	=18	=18	=18	=18	=18	=18	=18	=18	=18	=18	=18	=18	=18	=18	=18	=18	=18	=18	=18
4BB/	.	7 #	4d#X\|	1.ryy	4a/|	.	4ff#\	.	1.r	.	8f#\L	.	.	.	1.r	.	1.r	.	.	.	.	.	.	.	.	1.ryy
.	.	.	.	.	.	.	.	.	.	.	8e\	.	.	.	.	.	.	.	.	.	.	.	.	.	.	.
4BB/	.	.	4d#\|	.	4a/|	.	4ff#\|	.	.	.	8d#X\	.	.	.	.	.	.	.	.	.	.	.	.	.	.	.
.	.	.	.	.	.	.	.	.	.	.	8c#\J	.	.	.	.	.	.	.	.	.	.	.	.	.	.	.
4BB/	.	.	4d#\'	.	4a/|	.	4ff#\|	.	.	.	8B\L	.	.	.	.	.	.	.	.	.	.	.	.	.	.	.
.	.	.	.	.	.	.	.	.	.	.	8d#\	.	.	.	.	.	.	.	.	.	.	.	.	.	.	.
4BB/	.	.	4d#\'	.	4a/'	.	4ff#\'	.	.	.	8f#\	.	.	.	.	.	.	.	.	.	.	.	.	.	.	.
.	.	.	.	.	.	.	.	.	.	.	8e\J	.	.	.	.	.	.	.	.	.	.	.	.	.	.	.
4BB/	.	.	4d#\'	.	4a/	.	4ff#\'	.	.	.	8d#\L	.	.	.	.	.	.	.	.	.	.	.	.	.	.	.
.	.	.	.	.	.	.	.	.	.	.	8c#\	.	.	.	.	.	.	.	.	.	.	.	.	.	.	.
4BB/	.	.	4d#\	.	4a/'	.	4ff#\'	.	.	.	8B\	.	.	.	.	.	.	.	.	.	.	.	.	.	.	.
.	.	.	.	.	.	.	.	.	.	.	8A\J	.	.	.	.	.	.	.	.	.	.	.	.	.	.	.
!	!	!	!	!	!	!	!	!	!LO:LB:g=original	!	!	!	!	!	!	!	!	!	!	!	!	!	!	!	!	!
=19	=19	=19	=19	=19	=19	=19	=19	=19	=19	=19	=19	=19	=19	=19	=19	=19	=19	=19	=19	=19	=19	=19	=19	=19	=19	=19
4E\	.	X 3	4e\	1.ryy	4g#/	.	4ee\|	.	2E\	par-	(8G#\L	.	.	.	1.r	.	1.r	.	.	.	.	.	.	.	.	1.ryy
.	.	.	.	.	.	.	.	.	.	.	8e\	.	.	.	.	.	.	.	.	.	.	.	.	.	.	.
4E\	.	.	4e\'	.	4g#/|	.	4ee\|	.	.	.	8d#X\	.	.	.	.	.	.	.	.	.	.	.	.	.	.	.
.	.	.	.	.	.	.	.	.	.	.	8e\J)	.	.	.	.	.	.	.	.	.	.	.	.	.	.	.
4E\	.	.	4e\'	.	4g#/|	.	4ee\'	.	4r	.	(8f#\L	.	.	.	.	.	.	.	.	.	.	.	.	.	.	.
.	.	.	.	.	.	.	.	.	.	.	8e\	.	.	.	.	.	.	.	.	.	.	.	.	.	.	.
4E\	.	.	4e\'	.	4g#/'	.	4ee\'	.	4r	.	8d#\	.	.	.	.	.	.	.	.	.	.	.	.	.	.	.
.	.	.	.	.	.	.	.	.	.	.	8e\J)	.	.	.	.	.	.	.	.	.	.	.	.	.	.	.
4E\	.	.	4e\	.	4g#/'	.	4ee\'	.	2E\	.	4G#\	.	.	.	.	.	.	.	.	.	.	.	.	.	.	.
4E\	.	.	4e\'	.	4g#/'	.	4ee\'	.	.	.	4e\	.	.	.	.	.	.	.	.	.	.	.	.	.	.	.
!	!	!	!	!	!	!	!	!	!	!	!LO:LB:g=original	!	!	!	!	!	!	!	!	!	!	!	!	!	!	!
=20	=20	=20	=20	=20	=20	=20	=20	=20	=20	=20	=20	=20	=20	=20	=20	=20	=20	=20	=20	=20	=20	=20	=20	=20	=20	=20
4F#\	.	X 3	4f#\|	1.ryy	4a/|	.	4ee\	.	2F#\	-ce	(8A\L	.	.	.	1.r	.	1.r	.	00.r	.	00.r	00.r	.	00.r	.	1.ryy
.	.	.	.	.	.	.	.	.	.	.	8e\	.	.	.	.	.	.	.	.	.	.	.	.	.	.	.
4F#\	.	.	4f#\|	.	4a/|	.	4ee\|	.	.	.	8d#X\	.	.	.	.	.	.	.	.	.	.	.	.	.	.	.
.	.	.	.	.	.	.	.	.	.	.	8e\J)	.	.	.	.	.	.	.	.	.	.	.	.	.	.	.
4F#\	.	.	4f#\|	.	4a/'	.	4ee\'	.	2r	.	8f#\L	.	.	.	.	.	.	.	.	.	.	.	.	.	.	.
.	.	.	.	.	.	.	.	.	.	.	(8e\	.	.	.	.	.	.	.	.	.	.	.	.	.	.	.
4F#\	.	.	4f#\|	.	4a/'	.	4ee\'	.	.	.	8d#\	.	.	.	.	.	.	.	.	.	.	.	.	.	.	.
.	.	.	.	.	.	.	.	.	.	.	8e\J)	.	.	.	.	.	.	.	.	.	.	.	.	.	.	.
*	*	*	*	*	*	*	*	*	*	*ij	*	*	*	*	*	*	*	*	*	*	*	*	*	*	*	*
4F#\	.	.	4f#'\	.	4a/'	.	4ee\'	.	2F#\	par-	4A\	.	.	.	.	.	.	.	.	.	.	.	.	.	.	.
4F#\	.	.	4f#'\	.	4a/'	.	4ee\'	.	.	.	4e\	.	.	.	.	.	.	.	.	.	.	.	.	.	.	.
!LO:LB:g=original	!	!	!	!	!	!	!	!	!	!	!	!	!	!	!	!	!	!	!	!	!	!	!	!	!	!
=21	=21	=21	=21	=21	=21	=21	=21	=21	=21	=21	=21	=21	=21	=21	=21	=21	=21	=21	=21	=21	=21	=21	=21	=21	=21	=21
4G#\	.	X 3	4g#\|	1.ryy	4b\	.	4ee\	.	2G#\	-ce	8B\L|	.	00.r	.	1.r	.	1.r	.	.	.	.	.	.	.	.	1.ryy
.	.	.	.	.	.	.	.	.	.	.	(8e\	.	.	.	.	.	.	.	.	.	.	.	.	.	.	.
4G#\	.	.	4g#'\	.	4b\|	.	4ee\'	.	.	.	8d#X\	.	.	.	.	.	.	.	.	.	.	.	.	.	.	.
.	.	.	.	.	.	.	.	.	.	.	8e\J)	.	.	.	.	.	.	.	.	.	.	.	.	.	.	.
4G#\	.	.	4g#'\	.	4b\|	.	4ee\'	.	2r	.	(8f#\L	.	.	.	.	.	.	.	.	.	.	.	.	.	.	.
.	.	.	.	.	.	.	.	.	.	.	8e\	.	.	.	.	.	.	.	.	.	.	.	.	.	.	.
4G#\	.	.	4g#'\	.	4b\|	.	4ee\'	.	.	.	8d#\	.	.	.	.	.	.	.	.	.	.	.	.	.	.	.
.	.	.	.	.	.	.	.	.	.	.	8e\J)	.	.	.	.	.	.	.	.	.	.	.	.	.	.	.
4G#\	.	.	4g#'\	.	4b\'	.	4ee\'	.	2G#\	par-	4B\	.	.	.	.	.	.	.	.	.	.	.	.	.	.	.
4G#\	.	.	4g#\	.	4b\|	.	4ee\'	.	.	.	4e\	.	.	.	.	.	.	.	.	.	.	.	.	.	.	.
=22	=22	=22	=22	=22	=22	=22	=22	=22	=22	=22	=22	=22	=22	=22	=22	=22	=22	=22	=22	=22	=22	=22	=22	=22	=22	=22
2A\	.	.	2a\	1.ryy	4a/	.	(8dd#X\L	.	4A\	-ce	8d#X\L	.	.	.	1.r	.	1.r	.	.	.	.	.	.	.	.	1.ryy
*	*	*	*	*	*	*	*	*	*	*Xij	*	*	*	*	*	*	*	*	*	*	*	*	*	*	*	*
.	.	.	.	.	.	.	8cc#\	.	.	.	8c#\J	.	.	.	.	.	.	.	.	.	.	.	.	.	.	.
.	.	.	.	.	8g#/L	.	8b\	.	8G#\L	.	8B\L	-ce	.	.	.	.	.	.	.	.	.	.	.	.	.	.
.	.	.	.	.	8f#/J	.	8a\J)	.	8F#\J	.	8A\J	.	.	.	.	.	.	.	.	.	.	.	.	.	.	.
2B\	.	X 4	2b\	.	2e/	.	2g#/	.	2E\	no-	2G#/	no-	.	.	.	.	.	.	.	.	.	.	.	.	.	.
2BB/	.	X #	2B/	.	2d#X/	.	2f#/	.	2D#X\	-bis	2F#/	-bis	.	.	.	.	.	.	.	.	.	.	.	.	.	.
!	!	!	!LO:LB:g=original	!	!	!	!	!	!	!	!	!	!	!	!	!	!	!	!	!	!	!	!	!	!	!
=23	=23	=23	=23	=23	=23	=23	=23	=23	=23	=23	=23	=23	=23	=23	=23	=23	=23	=23	=23	=23	=23	=23	=23	=23	=23	=23
1.r	.	.	1.r	1.ryy	4ee\|	.	4gg#\|	.	4e\	par-	(4g#'\	par-	.	.	1.r	.	1.r	.	.	.	.	.	.	.	.	1.ryy
.	.	.	.	.	4dd#X\|	.	4ff#\|	.	4d#X\	.	4f#\	.	.	.	.	.	.	.	.	.	.	.	.	.	.	.
.	.	.	.	.	4cc#\|	.	4ee\|	.	4c#\	-ce	4e\)|	.	.	.	.	.	.	.	.	.	.	.	.	.	.	.
.	.	.	.	.	4b'\	.	4dd#X\|	.	4B\	.	4d#X'\	-ce	.	.	.	.	.	.	.	.	.	.	.	.	.	.
.	.	.	.	.	4a'\	.	4cc#\|	.	4A\	no-	4c#'\	no-	.	.	.	.	.	.	.	.	.	.	.	.	.	.
.	.	.	.	.	4g#\	.	4b\|	.	4G#\	-bis	4B'\	-bis	.	.	.	.	.	.	.	.	.	.	.	.	.	.
!	!	!	!	!	!	!	!LO:LB:g=original	!	!	!	!	!	!	!	!	!	!	!	!	!	!	!	!	!	!	!
=24	=24	=24	=24	=24	=24	=24	=24	=24	=24	=24	=24	=24	=24	=24	=24	=24	=24	=24	=24	=24	=24	=24	=24	=24	=24	=24
4A\	.	.	4e\	1.ryy	(8g#/L	.	(8b/L	.	8G#\L	do-	8B/L	do-	.	.	1.r	.	1.r	.	1.r	.	1.r	1.r	.	1.r	.	1.ryy
.	.	.	.	.	8e/	.	8g#/	.	8E\J	.	8G#/J	.	.	.	.	.	.	.	.	.	.	.	.	.	.	.
4A\	.	.	4a\	.	8c#/	.	8a/	.	8C#/L	.	8A/L	.	.	.	.	.	.	.	.	.	.	.	.	.	.	.
.	.	.	.	.	8A/J)	.	8f#/J)	.	8AA/J	.	8F#/J	.	.	.	.	.	.	.	.	.	.	.	.	.	.	.
4B\	.	X 4	2b\	.	2G#/	.	2e/	.	2BB/	.	2E/	.	.	.	.	.	.	.	.	.	.	.	.	.	.	.
4B\	.	.	.	.	.	.	.	.	.	.	.	.	.	.	.	.	.	.	.	.	.	.	.	.	.	.
4BB/	.	X #	2b\	.	2A/	.	2d#X/	.	2BB/	-mi-	2D#X/	-mi	.	.	.	.	.	.	.	.	.	.	.	.	.	.
4BB/	.	.	.	.	.	.	.	.	.	.	.	.	.	.	.	.	.	.	.	.	.	.	.	.	.	.
!	!	!	!	!	!LO:LB:g=original	!	!	!	!LO:LB:g=original	!	!LO:LB:g=original	!	!	!	!	!	!	!	!	!	!	!	!	!	!	!
=25	=25	=25	=25	=25	=25	=25	=25	=25	=25	=25	=25	=25	=25	=25	=25	=25	=25	=25	=25	=25	=25	=25	=25	=25	=25	=25
*	*	*	*	*	*^	*	*	*	*	*	*	*	*	*	*	*	*	*	*	*	*	*	*	*	*	*
!	!	!	!	!	!	!	!LO:DY:a:t=for	!	!	!	!	!LO:SIC:v:s=2E	!	!	!	!	!	!	!	!	!	!	!	!	!	!	!
2E\	.	.	2e\	1.ryy	2r	2G#/	f	2e/	.	2E\	-ne	2D/	-ne	00.r	.	1.r	.	1.r	.	2e/	.	2e/|>	4r	.	2r	.	1.ryy
.	.	.	.	.	.	.	.	.	.	.	.	.	.	.	.	.	.	.	.	.	.	.	4r	.	.	.	.
!	!	!	!	!	!	!	!	!LO:TX:a:i:t=dolce	!	!	!	!	!	!	!	!	!	!	!	!	!	!	!LO:TX:a:i:t=Solo	!	!LO:TX:a:i:t=Solo	!	!
2r	.	.	1E	.	2g# 2G#/	1rAyy	.	2b 2B/	.	2r	.	2r	.	.	.	.	.	.	.	4E/|>	.	4e/|>	2g#/	.	2b\	.	.
.	.	.	.	.	.	.	.	.	.	.	.	.	.	.	.	.	.	.	.	4E/|>	.	4e/|>	.	.	.	.	.
2r	.	.	.	.	2a 2A/	.	.	2cc# 2c#/	.	2r	.	2r	.	.	.	.	.	.	.	4E/|>	.	4e/|>	2a/	.	2cc#\	.	.
.	.	.	.	.	.	.	.	.	.	.	.	.	.	.	.	.	.	.	.	4E/|>	.	4e/|>	.	.	.	.	.
*	*	*	*	*	*v	*v	*	*	*	*	*	*	*	*	*	*	*	*	*	*	*	*	*	*	*	*	*
=26	=26	=26	=26	=26	=26	=26	=26	=26	=26	=26	=26	=26	=26	=26	=26	=26	=26	=26	=26	=26	=26	=26	=26	=26	=26	=26
2EE/|>	.	.	1.E	1.ryy	(4cc# 4c#/	.	(4ee 4e/	.	00.r	.	00.r	.	.	.	1.r	.	1.r	.	4E/|>	.	4e/	(4cc#\	.	(4ee\	.	1.ryy
.	.	.	.	.	4b 4B/)	.	4dd 4dn/)	.	.	.	.	.	.	.	.	.	.	.	4E/|>	.	4e/|>	4b\)	.	4dd\)	.	.
2r	.	.	.	.	(4b 4B/	.	(4dd 4d/	.	.	.	.	.	.	.	.	.	.	.	4E/	.	4e/|>	(4b\	.	(4dd\	.	.
.	.	.	.	.	4a 4A/)	.	4cc# 4c#/)	.	.	.	.	.	.	.	.	.	.	.	4E/|>	.	4e/|>	4a\)	.	4cc#\)	.	.
2r	.	.	.	.	(4a 4A/	.	(4cc# 4c#/	.	.	.	.	.	.	.	.	.	.	.	4E/|>	.	4e/|>	(4a\	.	(4cc#\	.	.
.	.	.	.	.	4g# 4G#/)	.	4b 4B/)	.	.	.	.	.	.	.	.	.	.	.	4E/|>	.	4e/	4g#\)	.	4b\)	.	.
!	!	!	!	!	!	!	!	!	!	!	!	!	!	!	!	!	!	!	!	!	!	!LO:LB:g=original	!	!LO:LB:g=original	!	!
=27	=27	=27	=27	=27	=27	=27	=27	=27	=27	=27	=27	=27	=27	=27	=27	=27	=27	=27	=27	=27	=27	=27	=27	=27	=27	=27
2EE/|>	.	.	1.E	1.ryy	1a 1A	.	1cc# 1c#	.	.	.	.	.	.	.	1.r	.	1.r	.	4E/|>	.	4e/|>	(1a	.	(1cc#	.	1.ryy
.	.	.	.	.	.	.	.	.	.	.	.	.	.	.	.	.	.	.	4E/|>	.	4e/|>	.	.	.	.	.
2r	.	.	.	.	.	.	.	.	.	.	.	.	.	.	.	.	.	.	4E/|>	.	4e/|>	.	.	.	.	.
.	.	.	.	.	.	.	.	.	.	.	.	.	.	.	.	.	.	.	4E/|>	.	4e/	.	.	.	.	.
2r	.	.	.	.	2b 2B/	.	2dd 2d/	.	.	.	.	.	.	.	.	.	.	.	4E/	.	4e/|>	2b\)	.	2dd\)	.	.
.	.	.	.	.	.	.	.	.	.	.	.	.	.	.	.	.	.	.	4E/	.	4e/	.	.	.	.	.
=28	=28	=28	=28	=28	=28	=28	=28	=28	=28	=28	=28	=28	=28	=28	=28	=28	=28	=28	=28	=28	=28	=28	=28	=28	=28	=28
2EE/|>	.	.	1.E	1.ryy	4dd 4d/	.	(4ff# 4f#/	.	.	.	.	.	.	.	1.r	.	1.r	.	4E/|>	.	4e/|<	(4dd\	.	(4ff#\	.	1.ryy
.	.	.	.	.	4cc# 4c#/	.	4ee 4e/)	.	.	.	.	.	.	.	.	.	.	.	4E/|>	.	4e/|<	4cc#\)	.	4ee\)	.	.
2r	.	.	.	.	4cc# 4c#/	.	(4ee 4e/	.	.	.	.	.	.	.	.	.	.	.	4E/|>	.	4e/|<	(4cc#\	.	(4ee\	.	.
.	.	.	.	.	4b 4B/	.	4dd 4d/)	.	.	.	.	.	.	.	.	.	.	.	4E/|>	.	4e/	4b\)	.	4dd\	.	.
2r	.	.	.	.	4b 4B/	.	(4dd 4d/	.	.	.	.	.	.	.	.	.	.	.	4E/|>	.	4e/|<	(4b\	.	4dd\)	.	.
.	.	.	.	.	4a 4A/	.	4cc# 4c#/)	.	.	.	.	.	.	.	.	.	.	.	4E/	.	4e/	4a\)	.	4cc#\	.	.
!	!	!	!	!	!	!	!	!	!	!	!	!	!	!	!	!	!	!	!LO:LB:g=original	!	!	!	!	!	!	!
=29	=29	=29	=29	=29	=29	=29	=29	=29	=29	=29	=29	=29	=29	=29	=29	=29	=29	=29	=29	=29	=29	=29	=29	=29	=29	=29
2E\	.	.	2E/	1.ryy	1g# 1G#	.	1b 1B	.	.	.	.	.	00.r	.	1.r	.	1.r	.	1e	.	1b	1g#	.	1b	.	1.ryy
2G#\	.	5 3	2G#/	.	.	.	.	.	.	.	.	.	.	.	.	.	.	.	.	.	.	.	.	.	.	.
2A\	.	X 3	2A/	.	2a 2A/	.	2cc# 2c#/	.	.	.	.	.	.	.	.	.	.	.	2a\	.	2cc#\	2a/	.	2cc#\	.	.
!LO:LB:g=original	!	!	!	!	!	!	!	!	!	!	!	!	!	!	!	!	!	!	!	!	!	!	!	!	!	!
=30	=30	=30	=30	=30	=30	=30	=30	=30	=30	=30	=30	=30	=30	=30	=30	=30	=30	=30	=30	=30	=30	=30	=30	=30	=30	=30
2E\	.	X 3	2e\	1.ryy	1g# 1G#	.	1b 1B	.	0.r	.	1.r	.	.	.	1.r	.	1.r	.	1e	.	1b	2g#/	.	2b\	.	1.ryy
4E\|	.	.	4e\	.	.	.	.	.	.	.	.	.	.	.	.	.	.	.	.	.	.	2r	.	2r	.	.
4D\|	.	.	4d\	.	.	.	.	.	.	.	.	.	.	.	.	.	.	.	.	.	.	.	.	.	.	.
4C#\|	.	.	4c#\	.	2r	.	2r	.	.	.	.	.	.	.	.	.	.	.	2r	.	2r	2r	.	2r	.	.
4BB\|	.	.	4B\	.	.	.	.	.	.	.	.	.	.	.	.	.	.	.	.	.	.	.	.	.	.	.
=31	=31	=31	=31	=31	=31	=31	=31	=31	=31	=31	=31	=31	=31	=31	=31	=31	=31	=31	=31	=31	=31	=31	=31	=31	=31	=31
*	*	*	*^	*	*	*	*	*	*	*	*	*	*	*	*	*	*	*	*	*	*	*	*	*	*	*
2A 2AA/	.	.	2e/	2A\	1.ryy	2a/	.	2r	.	.	.	2r	.	.	.	1.r	.	1.r	.	2A/	.	2a\	00.r	.	00.r	.	1.ryy
2r	.	.	2r	2ryy	.	2r	.	4r	.	.	.	4r	.	.	.	.	.	.	.	2r	.	2r	.	.	.	.	.
.	.	.	.	.	.	.	.	4e/|	.	.	.	(4E/	A-	.	.	.	.	.	.	.	.	.	.	.	.	.	.
2r	.	.	2r	2ryy	.	2r	.	(4a\	.	.	.	4A/	.	.	.	.	.	.	.	2r	.	2r	.	.	.	.	.
!	!	!	!	!	!	!LO:TX:b:i:t=VS&colon;	!	!	!	!	!	!	!	!	!	!	!	!	!	!	!	!	!	!	!	!	!
.	.	.	.	.	.	.	.	4cc#\)	.	.	.	4c#\)	-gnus	.	.	.	.	.	.	.	.	.	.	.	.	.	.
!	!	!	!	!	!	!LO:PB:g=original	!	!	!	!	!	!	!	!	!	!	!	!	!	!	!	!	!	!	!	!	!
*	*	*	*v	*v	*	*	*	*	*	*	*	*	*	*	*	*	*	*	*	*	*	*	*	*	*	*	*
=32	=32	=32	=32	=32	=32	=32	=32	=32	=32	=32	=32	=32	=32	=32	=32	=32	=32	=32	=32	=32	=32	=32	=32	=32	=32	=32
*	*	*	*	*	*	*	*	*	*	*	*	*ij	*	*	*	*	*	*	*	*	*	*	*	*	*	*
2AA/	.	.	2A/	1.ryy	(1cc#	.	(1ee	.	1c#	A-	(1e	A-	.	.	1.r	.	1.r	.	2A/	.	1a	.	.	.	.	1.ryy
2C#/	.	.	2c#\	.	.	.	.	.	.	.	.	.	.	.	.	.	.	.	2c#/	.	.	.	.	.	.	.
!	!	!	!	!	!LO:TX:t=P:problem=przyjęto łuk ze względu na błędny dźwięk	!	!	!	!	!	!	!	!	!	!	!	!	!	!	!	!	!	!	!	!	!
!	!	!	!	!	!LO:SIC:v:s=2b	!	!	!	!	!	!	!	!	!	!	!	!	!	!	!	!	!	!	!	!	!
2E\	.	.	2e\	.	2cc#\)	.	2dd\)	.	2B\	-gnus	2d\)	-gnus	.	.	.	.	.	.	2e/	.	2b\	.	.	.	.	.
*	*	*	*	*	*	*	*	*	*	*	*	*Xij	*	*	*	*	*	*	*	*	*	*	*	*	*	*
!	!	!	!	!	!	!	!LO:LB:g=original	!	!	!	!	!	!	!	!	!	!	!	!	!	!	!	!	!	!	!
=33	=33	=33	=33	=33	=33	=33	=33	=33	=33	=33	=33	=33	=33	=33	=33	=33	=33	=33	=33	=33	=33	=33	=33	=33	=33	=33
2A\	.	.	2e\	1.ryy	(8cc#\L	.	(8ee\L	.	8c#\L	de-	8e\L	de-	00.r	.	1.r	.	1.r	.	2e/	.	2b\	.	.	.	.	1.ryy
.	.	.	.	.	8b\	.	8dd\	.	8B\	.	8d\	.	.	.	.	.	.	.	.	.	.	.	.	.	.	.
.	.	.	.	.	8a\	.	8cc#\	.	8A\	.	8c#\	.	.	.	.	.	.	.	.	.	.	.	.	.	.	.
.	.	.	.	.	8b\J)	.	8dd\J)	.	8B\J	.	8d\J	.	.	.	.	.	.	.	.	.	.	.	.	.	.	.
.	.	.	.	.	.	.	8qqdd/	.	8qqB/	.	8qqd/	.	.	.	.	.	.	.	.	.	.	.	.	.	.	.
2AA/	.	.	2e\	.	2a\	.	2cc#\	.	2A\	-i	2c#\	-i	.	.	.	.	.	.	2a\	.	2cc#\	.	.	.	.	.
!	!	!	!	!	!	!	!	!	!	!	!LO:SIC:v:s=qui	!	!	!	!	!	!	!	!	!	!	!	!	!	!	!
2r	.	.	2r	.	(4cc#\	.	(4ee\	.	4c#\	qui	(4d\	qoi	.	.	.	.	.	.	2r	.	2r	.	.	.	.	.
.	.	.	.	.	4a\)	.	4cc#\)	.	4A\	.	4c#\)	.	.	.	.	.	.	.	.	.	.	.	.	.	.	.
=34	=34	=34	=34	=34	=34	=34	=34	=34	=34	=34	=34	=34	=34	=34	=34	=34	=34	=34	=34	=34	=34	=34	=34	=34	=34	=34
2D\	.	.	2f#\	1.ryy	2d/	.	(4cc#\	.	2D/	tol-	(4c#\	tol-	.	.	1.r	.	1.r	.	2r	.	2r	.	.	.	.	1.ryy
.	.	.	.	.	.	.	4b\)	.	.	.	4B\)	.	.	.	.	.	.	.	.	.	.	.	.	.	.	.
2E\	.	.	2e\	.	2c#/	.	(4b\	.	2C#/	.	(4B\	.	.	.	.	.	.	.	2r	.	2r	.	.	.	.	.
.	.	.	.	.	.	.	4a\)	.	.	.	4A\)	.	.	.	.	.	.	.	.	.	.	.	.	.	.	.
2EE/	.	.	2e\	.	2B/	.	(4a/	.	2BB/	.	(4A\	.	.	.	.	.	.	.	2e/	.	2b\	.	.	.	.	.
.	.	.	.	.	.	.	4g#/)	.	.	.	4G#\)	.	.	.	.	.	.	.	.	.	.	.	.	.	.	.
!	!	!	!LO:LB:g=original	!	!	!	!	!	!	!	!	!	!	!	!	!	!	!	!	!	!	!	!	!	!	!
=35	=35	=35	=35	=35	=35	=35	=35	=35	=35	=35	=35	=35	=35	=35	=35	=35	=35	=35	=35	=35	=35	=35	=35	=35	=35	=35
2AA/	.	.	2e\	1.ryy	4c#/	.	4a\	.	4C#/	.	4A\	.	.	.	1.r	.	1.r	.	2c#/	.	2a\	0.r	.	0.r	.	1.ryy
.	.	.	.	.	8e/L	.	8b\L	.	8G#\L	.	8B\L	.	.	.	.	.	.	.	.	.	.	.	.	.	.	.
.	.	.	.	.	8a/J	.	8cc#\J	.	8A\J	.	8c#\J	.	.	.	.	.	.	.	.	.	.	.	.	.	.	.
2E\	.	.	2e\	.	2g#/	.	2b\	.	2G#\	-lis	2B\	-lis	.	.	.	.	.	.	2e/	.	2b\	.	.	.	.	.
!	!	!	!	!	!	!	!	!	!LO:N:vis=2	!	!	!	!	!	!	!	!	!	!	!	!	!	!	!	!	!
4r	.	.	4r	.	4r	.	4r	.	4r	.	4r	.	.	.	.	.	.	.	2r	.	2r	.	.	.	.	.
4G#\	.	.	4e\	.	4b/	.	4dd\|	.	4G#\	pec-	4d\	pec-	.	.	.	.	.	.	.	.	.	.	.	.	.	.
!	!	!	!	!	!	!	!	!	!LO:LB:g=original	!	!LO:LB:g=original	!	!	!	!	!	!	!	!	!	!	!	!	!	!	!
=36	=36	=36	=36	=36	=36	=36	=36	=36	=36	=36	=36	=36	=36	=36	=36	=36	=36	=36	=36	=36	=36	=36	=36	=36	=36	=36
2A\	.	.	2e\	1.ryy	(4b/	.	(4dd\	.	4G#\	-ca-	(4d\	-ca-	.	.	1.r	.	1.r	.	2r	.	2r	.	.	.	.	1.ryy
.	.	.	.	.	4a/)	.	4cc#\)	.	4A\	.	4c#\)	.	.	.	.	.	.	.	.	.	.	.	.	.	.	.
2D\	.	.	2f#\	.	(4a/	.	(4cc#\	.	4A\	-ta	(4c#\	-ta	.	.	.	.	.	.	2r	.	2r	.	.	.	.	.
.	.	.	.	.	4d/)	.	4b\)	.	4D\	.	4B\)	.	.	.	.	.	.	.	.	.	.	.	.	.	.	.
4E\	.	.	4e\	.	8d/L	.	(8b\L	.	8D/L	mun-	(8B\L	mun-	.	.	.	.	.	.	2e/	.	2b\	.	.	.	.	.
.	.	.	.	.	8c#/	.	8a\)	.	8C#/	.	8A\J)	.	.	.	.	.	.	.	.	.	.	.	.	.	.	.
4EE/	.	.	4e\	.	8c#/	.	(8a\	.	8C#/	.	(8A\L	.	.	.	.	.	.	.	.	.	.	.	.	.	.	.
.	.	.	.	.	8B/J	.	8g#\J)	.	8BB/J	.	8G#\J)	.	.	.	.	.	.	.	.	.	.	.	.	.	.	.
=37	=37	=37	=37	=37	=37	=37	=37	=37	=37	=37	=37	=37	=37	=37	=37	=37	=37	=37	=37	=37	=37	=37	=37	=37	=37	=37
2AA/	.	.	1e	1.ryy	2B/	.	2g#/	.	2BB/	-di	2G#/	-di	00.r	.	1.r	.	1.r	.	2e/	.	2b\	1.r	.	1.r	.	1.ryy
2E\	.	.	.	.	2c#/	.	2a/	.	2C#/	.	2A/	.	.	.	.	.	.	.	2A/	.	1a	.	.	.	.	.
!	!	!	!	!	!	!	!LO:TX:b:i:t=VS&colon;	!	!	!	!	!	!	!	!	!	!	!	!	!	!	!	!	!	!	!
2A\	.	.	2r	.	2r	.	2r	.	2r	.	2r	.	.	.	.	.	.	.	2r	.	.	.	.	.	.	.
!	!	!	!	!	!	!	!LO:PB:g=original	!	!	!	!	!	!	!	!	!	!	!	!	!	!	!	!	!	!	!
=38	=38	=38	=38	=38	=38	=38	=38	=38	=38	=38	=38	=38	=38	=38	=38	=38	=38	=38	=38	=38	=38	=38	=38	=38	=38	=38
!	!	!	!	!	!	!	!	!	!	!	!	!	!	!	!	!	!	!	!	!	!LO:TX:a:i:t=Clarini	!	!	!	!	!
!	!	!	!	!	!	!	!	!	!	!	!	!	!	!	!	!	!	!	!	!	!LO:TX:b:i:t=in D&colon;	!	!	!	!	!
!	!	!	!	!	!	!LO:DY:b:t=po	!	!LO:DY:b:t=po	!	!	!	!	!	!	!	!	!	!	!	!	!	!	!	!	!	!
!	!	!	!	!	!	!	!	!	!	!	!	!	!	!	!	!	!	!	!	!	!	!	!LO:DY:b:t=po	!	!LO:DY:b:t=po.	!
4AA/	.	5_ 3_	4A'/	1.ryy	4e/|	p	4cc#\	p	0.r	.	8c#\L	ex-	.	.	1.r	.	1.r	.	00.r	.	00.r	1.a	p	1.a	p	1.ryy
.	.	.	.	.	.	.	.	.	.	.	8d\	.	.	.	.	.	.	.	.	.	.	.	.	.	.	.
4AA/	.	.	4A'/	.	4e/|	.	4cc#\|	.	.	.	8c#\	.	.	.	.	.	.	.	.	.	.	.	.	.	.	.
.	.	.	.	.	.	.	.	.	.	.	8B\J	.	.	.	.	.	.	.	.	.	.	.	.	.	.	.
4AA/	.	.	4A'/	.	4e/|	.	4cc#\|	.	.	.	8A\L	-au-	.	.	.	.	.	.	.	.	.	.	.	.	.	.
.	.	.	.	.	.	.	.	.	.	.	8G#\	.	.	.	.	.	.	.	.	.	.	.	.	.	.	.
4AA/	.	.	4A'/	.	4e/'	.	4cc#\|	.	.	.	8A\	.	.	.	.	.	.	.	.	.	.	.	.	.	.	.
.	.	.	.	.	.	.	.	.	.	.	8B\J	.	.	.	.	.	.	.	.	.	.	.	.	.	.	.
4AA/	.	.	4A'/	.	4e/'	.	4cc#\|	.	.	.	8c#\L	.	.	.	.	.	.	.	.	.	.	.	.	.	.	.
.	.	X X	.	.	.	.	.	.	.	.	8d\	.	.	.	.	.	.	.	.	.	.	.	.	.	.	.
4AA/	.	.	4A/	.	4e/'	.	4cc#\|	.	.	.	8e\	.	.	.	.	.	.	.	.	.	.	.	.	.	.	.
.	.	.	.	.	.	.	.	.	.	.	8c#\J	.	.	.	.	.	.	.	.	.	.	.	.	.	.	.
!LO:LB:g=original	!	!	!	!	!	!	!	!	!	!	!	!	!	!	!	!	!	!	!	!	!	!	!	!	!	!
=39	=39	=39	=39	=39	=39	=39	=39	=39	=39	=39	=39	=39	=39	=39	=39	=39	=39	=39	=39	=39	=39	=39	=39	=39	=39	=39
4AA/	.	6_ 4_	4A'/	1.ryy	4f#/|	.	4dd\|	.	.	.	8d\L	.	.	.	1.r	.	1.r	.	.	.	.	1.a	.	1.a	.	1.ryy
.	.	.	.	.	.	.	.	.	.	.	8e\	.	.	.	.	.	.	.	.	.	.	.	.	.	.	.
4AA/	.	.	4A'/	.	4f#/|	.	4dd\|	.	.	.	8d\	.	.	.	.	.	.	.	.	.	.	.	.	.	.	.
.	.	.	.	.	.	.	.	.	.	.	8c#\J	.	.	.	.	.	.	.	.	.	.	.	.	.	.	.
4AA/	.	.	4A'/	.	4f#/|	.	4dd\|	.	.	.	8d\L	.	.	.	.	.	.	.	.	.	.	.	.	.	.	.
.	.	.	.	.	.	.	.	.	.	.	8A\	.	.	.	.	.	.	.	.	.	.	.	.	.	.	.
4AA/	.	.	4A'/	.	4f#/'	.	4dd\|	.	.	.	8B\	.	.	.	.	.	.	.	.	.	.	.	.	.	.	.
.	.	.	.	.	.	.	.	.	.	.	8c#\J	.	.	.	.	.	.	.	.	.	.	.	.	.	.	.
4AA/	.	.	4A'/	.	4f#/'	.	4dd\|	.	.	.	8d\L	-di	.	.	.	.	.	.	.	.	.	.	.	.	.	.
.	.	X X	.	.	.	.	.	.	.	.	8e\	.	.	.	.	.	.	.	.	.	.	.	.	.	.	.
4AA/	.	.	4A/	.	4f#/	.	4dd\|	.	.	.	8f#\	.	.	.	.	.	.	.	.	.	.	.	.	.	.	.
.	.	.	.	.	.	.	.	.	.	.	8d\J	.	.	.	.	.	.	.	.	.	.	.	.	.	.	.
!	!	!	!	!	!LO:LB:g=original	!	!	!	!	!	!	!	!	!	!	!	!	!	!	!	!	!	!	!	!	!
=40	=40	=40	=40	=40	=40	=40	=40	=40	=40	=40	=40	=40	=40	=40	=40	=40	=40	=40	=40	=40	=40	=40	=40	=40	=40	=40
4AA/	.	7n 5	4c#\|	1.ryy	4gn/	.	4ee\	.	1.r	.	8d\L	nos	.	.	1.r	.	1.r	.	.	.	.	1.a	.	1.a	.	1.ryy
.	.	.	.	.	.	.	.	.	.	.	8c#\	.	.	.	.	.	.	.	.	.	.	.	.	.	.	.
4AA/	.	.	4c#\|	.	4g/|	.	4ee\|	.	.	.	8e\	.	.	.	.	.	.	.	.	.	.	.	.	.	.	.
.	.	.	.	.	.	.	.	.	.	.	8d\J	.	.	.	.	.	.	.	.	.	.	.	.	.	.	.
4AA/	.	.	4c#'\	.	4g/|	.	4ee\|	.	.	.	8c#\L	do-	.	.	.	.	.	.	.	.	.	.	.	.	.	.
.	.	.	.	.	.	.	.	.	.	.	8d\	.	.	.	.	.	.	.	.	.	.	.	.	.	.	.
4AA/	.	.	4c#'\	.	4g/'	.	4ee\|	.	.	.	8c#\	.	.	.	.	.	.	.	.	.	.	.	.	.	.	.
.	.	.	.	.	.	.	.	.	.	.	8B\J	.	.	.	.	.	.	.	.	.	.	.	.	.	.	.
4AA/	.	.	4c#'\	.	4g/'	.	4ee\|	.	.	.	8A/L	.	.	.	.	.	.	.	.	.	.	.	.	.	.	.
.	.	.	.	.	.	.	.	.	.	.	8G#/J	.	.	.	.	.	.	.	.	.	.	.	.	.	.	.
4AA/	.	.	4c#'\	.	4g/'	.	4ee\|	.	.	.	8F#/L	-mi-	.	.	.	.	.	.	.	.	.	.	.	.	.	.
.	.	.	.	.	.	.	.	.	.	.	8E/J	.	.	.	.	.	.	.	.	.	.	.	.	.	.	.
!	!	!	!	!	!	!	!	!	!	!	!LO:LB:g=original	!	!	!	!	!	!	!	!	!	!	!	!	!	!	!
=41	=41	=41	=41	=41	=41	=41	=41	=41	=41	=41	=41	=41	=41	=41	=41	=41	=41	=41	=41	=41	=41	=41	=41	=41	=41	=41
!	!	!	!	!	!	!LO:DY:b:t=for	!	!LO:DY:b:t=for	!	!	!	!	!	!	!	!	!	!	!	!	!	!	!	!	!	!
2D\	.	.	2d\	1.ryy	4f#/	f	4dd\|	f	4r	.	2F#/	-ne	00.r	.	1.r	.	1.r	.	.	.	.	2a/	.	2a/	.	1.ryy
.	.	.	.	.	8.d/L|	.	8.d/L	.	4D\|	do-	.	.	.	.	.	.	.	.	.	.	.	.	.	.	.	.
.	.	.	.	.	16d/Jk|	.	16d/Jk	.	.	.	.	.	.	.	.	.	.	.	.	.	.	.	.	.	.	.
2r	.	.	2r	.	8.f#/L'	.	8.f#/L	.	4F#\|	.	2r	.	.	.	.	.	.	.	.	.	.	2r	.	2r	.	.
.	.	.	.	.	16f#/Jk'	.	16f#/Jk	.	.	.	.	.	.	.	.	.	.	.	.	.	.	.	.	.	.	.
.	.	.	.	.	8.a/L'	.	8.a/L	.	4A\|	-mi-	.	.	.	.	.	.	.	.	.	.	.	.	.	.	.	.
.	.	.	.	.	16a/Jk'	.	16a/Jk	.	.	.	.	.	.	.	.	.	.	.	.	.	.	.	.	.	.	.
2r	.	.	2r	.	4dd\	.	4dd\	.	2d\|	-ne	2r	.	.	.	.	.	.	.	.	.	.	2r	.	2r	.	.
.	.	.	.	.	4r	.	4r	.	.	.	.	.	.	.	.	.	.	.	.	.	.	.	.	.	.	.
=42	=42	=42	=42	=42	=42	=42	=42	=42	=42	=42	=42	=42	=42	=42	=42	=42	=42	=42	=42	=42	=42	=42	=42	=42	=42	=42
!	!	!	!	!	!	!LO:DY:b	!	!LO:DY:b:t=po	!	!	!	!	!	!	!	!	!	!	!	!	!	!	!	!	!	!
4BB/	.	X #	4B/	1.ryy	4f#/	p	4dd#X\|	p	0.r	.	8d#X\L	ex-	.	.	1.r	.	1.r	.	00.r	.	00.r	1.b	.	1.b	.	1.ryy
.	.	.	.	.	.	.	.	.	.	.	8e\	.	.	.	.	.	.	.	.	.	.	.	.	.	.	.
4BB/	.	.	4B'/	.	4f#/'	.	4dd#\	.	.	.	8d#\	.	.	.	.	.	.	.	.	.	.	.	.	.	.	.
.	.	.	.	.	.	.	.	.	.	.	8c#\J	.	.	.	.	.	.	.	.	.	.	.	.	.	.	.
4BB/	.	.	4B'/	.	4f#/'	.	4dd#\|	.	.	.	8B\L	-au-	.	.	.	.	.	.	.	.	.	.	.	.	.	.
.	.	.	.	.	.	.	.	.	.	.	8A#X\	.	.	.	.	.	.	.	.	.	.	.	.	.	.	.
4BB/	.	.	4B'/	.	4f#/'	.	4dd#\|	.	.	.	8B\	.	.	.	.	.	.	.	.	.	.	.	.	.	.	.
.	.	.	.	.	.	.	.	.	.	.	8c#\J	.	.	.	.	.	.	.	.	.	.	.	.	.	.	.
4BB/	.	.	4B'/	.	4f#/	.	4dd#\|	.	.	.	8d#\L	.	.	.	.	.	.	.	.	.	.	.	.	.	.	.
.	.	.	.	.	.	.	.	.	.	.	8e\	.	.	.	.	.	.	.	.	.	.	.	.	.	.	.
4BB/	.	.	4B'/	.	4f#/	.	4dd#\|	.	.	.	8f#\	.	.	.	.	.	.	.	.	.	.	.	.	.	.	.
.	.	.	.	.	.	.	.	.	.	.	8d#\J	.	.	.	.	.	.	.	.	.	.	.	.	.	.	.
=43	=43	=43	=43	=43	=43	=43	=43	=43	=43	=43	=43	=43	=43	=43	=43	=43	=43	=43	=43	=43	=43	=43	=43	=43	=43	=43
4BB/|>	.	.	4B'/	1.ryy	4g#X/	.	4ee\|	.	.	.	8e\L	.	.	.	1.r	.	1.r	.	.	.	.	1.b	.	1.b	.	1.ryy
.	.	.	.	.	.	.	.	.	.	.	8f#\	.	.	.	.	.	.	.	.	.	.	.	.	.	.	.
4BB/|>	.	.	4B/	.	4g#/|	.	4ee\|	.	.	.	8e\	.	.	.	.	.	.	.	.	.	.	.	.	.	.	.
.	.	.	.	.	.	.	.	.	.	.	8d#X\J	.	.	.	.	.	.	.	.	.	.	.	.	.	.	.
4BB/|>	.	.	4B'/	.	4g#/|	.	4ee\|	.	.	.	8e\L	.	.	.	.	.	.	.	.	.	.	.	.	.	.	.
.	.	.	.	.	.	.	.	.	.	.	8B\	.	.	.	.	.	.	.	.	.	.	.	.	.	.	.
4BB/|>	.	.	4B'/	.	4g#/|	.	4ee\|	.	.	.	8c#\	.	.	.	.	.	.	.	.	.	.	.	.	.	.	.
.	.	.	.	.	.	.	.	.	.	.	8d#\J	.	.	.	.	.	.	.	.	.	.	.	.	.	.	.
4BB/|>	.	.	4B'/	.	4g#/|	.	4ee\|	.	.	.	8e\L	-di	.	.	.	.	.	.	.	.	.	.	.	.	.	.
.	.	.	.	.	.	.	.	.	.	.	8f#\	.	.	.	.	.	.	.	.	.	.	.	.	.	.	.
4BB/	.	.	4B/	.	4g#/	.	4ee\	.	.	.	8g#\	.	.	.	.	.	.	.	.	.	.	.	.	.	.	.
.	.	.	.	.	.	.	.	.	.	.	8e\J	.	.	.	.	.	.	.	.	.	.	.	.	.	.	.
!	!	!	!LO:LB:g=original	!	!	!	!	!	!	!	!	!	!	!	!	!	!	!	!	!	!	!	!	!	!	!
=44	=44	=44	=44	=44	=44	=44	=44	=44	=44	=44	=44	=44	=44	=44	=44	=44	=44	=44	=44	=44	=44	=44	=44	=44	=44	=44
4BB/	.	7 5	4d#X\|	1.ryy	4a/|	.	4ff#\	.	1.r	.	8e\L	nos	.	.	1.r	.	1.r	.	.	.	.	1.b	.	1.b	.	1.ryy
!	!	!	!	!	!	!	!	!	!	!	!LO:SIC:v:s=8d#	!	!	!	!	!	!	!	!	!	!	!	!	!	!	!
.	.	.	.	.	.	.	.	.	.	.	8d\	.	.	.	.	.	.	.	.	.	.	.	.	.	.	.
4BB/	.	.	4d#\|	.	4a/|	.	4ff#\|	.	.	.	8f#\	.	.	.	.	.	.	.	.	.	.	.	.	.	.	.
.	.	.	.	.	.	.	.	.	.	.	8e\J	.	.	.	.	.	.	.	.	.	.	.	.	.	.	.
4BB/	.	.	4d#\'	.	4a/|	.	4ff#\|	.	.	.	(8d#X\L	do-	.	.	.	.	.	.	.	.	.	.	.	.	.	.
.	.	.	.	.	.	.	.	.	.	.	8e\	.	.	.	.	.	.	.	.	.	.	.	.	.	.	.
4BB/	.	.	4d#\|	.	4a/|	.	4ff#\|	.	.	.	8d#\	.	.	.	.	.	.	.	.	.	.	.	.	.	.	.
.	.	.	.	.	.	.	.	.	.	.	8c#\J)	.	.	.	.	.	.	.	.	.	.	.	.	.	.	.
4BB/	.	.	4d#\'	.	4a/|	.	4ff#\|	.	.	.	8B\L	.	.	.	.	.	.	.	.	.	.	.	.	.	.	.
.	.	.	.	.	.	.	.	.	.	.	8A\J	.	.	.	.	.	.	.	.	.	.	.	.	.	.	.
4BB/	.	.	4d#\	.	4a/	.	4ff#\|	.	.	.	8G#/L	-mi-	.	.	.	.	.	.	.	.	.	.	.	.	.	.
.	.	.	.	.	.	.	.	.	.	.	8F#/J	.	.	.	.	.	.	.	.	.	.	.	.	.	.	.
!	!	!	!	!	!	!	!LO:LB:g=original	!	!	!	!	!	!	!	!	!	!	!	!	!	!	!	!	!	!	!
=45	=45	=45	=45	=45	=45	=45	=45	=45	=45	=45	=45	=45	=45	=45	=45	=45	=45	=45	=45	=45	=45	=45	=45	=45	=45	=45
!	!	!	!	!	!	!LO:DY:b:t=for	!	!LO:DY:b:t=for	!	!	!	!	!	!	!	!	!	!	!	!	!	!	!	!	!	!
2E\	.	.	2e\	1.ryy	4g#/	f	4ee\	f	4r	.	2G#/	-ne	00.r	.	1.r	.	1.r	.	.	.	.	2b\	.	2b\	.	1.ryy
.	.	.	.	.	8.e/L	.	8.e/L	.	4E\|	do-	.	.	.	.	.	.	.	.	.	.	.	.	.	.	.	.
.	.	.	.	.	16e/Jk	.	16e/Jk	.	.	.	.	.	.	.	.	.	.	.	.	.	.	.	.	.	.	.
2r	.	.	2r	.	8.g#/L	.	8.g#X/L	.	4G#\|	.	2r	.	.	.	.	.	.	.	.	.	.	2r	.	2r	.	.
.	.	.	.	.	16g#/Jk	.	16g#/Jk	.	.	.	.	.	.	.	.	.	.	.	.	.	.	.	.	.	.	.
.	.	.	.	.	8.b\L	.	8.b\L	.	4B\|	-mi-	.	.	.	.	.	.	.	.	.	.	.	.	.	.	.	.
.	.	.	.	.	16b\Jk	.	16b\Jk	.	.	.	.	.	.	.	.	.	.	.	.	.	.	.	.	.	.	.
2r	.	.	2r	.	4ee\	.	4ee\	.	2e\|	-ne	2r	.	.	.	.	.	.	.	.	.	.	2r	.	2r	.	.
.	.	.	.	.	4r	.	4r	.	.	.	.	.	.	.	.	.	.	.	.	.	.	.	.	.	.	.
!	!	!	!	!	!	!	!	!	!LO:LB:g=original	!	!LO:LB:g=original	!	!	!	!	!	!	!	!	!	!	!	!	!	!	!
!	!	!	!	!	!	!	!	!	!	!	!	!	!	!	!	!	!	!	!	!	!	!	!	!LO:LB:g=original	!	!
=46	=46	=46	=46	=46	=46	=46	=46	=46	=46	=46	=46	=46	=46	=46	=46	=46	=46	=46	=46	=46	=46	=46	=46	=46	=46	=46
!	!	!	!	!	!	!LO:DY:b:t=po	!	!LO:DY:b:t=po	!	!	!	!	!	!	!	!	!	!	!	!	!	!	!	!	!	!
2EE/	.	.	1B	1.ryy	(4g#/	p	1ddn	p	1G#	ex-	[1dn	ex-	.	.	1.r	.	1.r	.	00.r	.	00.r	00.r	.	00.r	.	1.ryy
.	.	.	.	.	4e/)	.	.	.	.	.	.	.	.	.	.	.	.	.	.	.	.	.	.	.	.	.
2r	.	.	.	.	(4g#/	.	.	.	.	.	.	.	.	.	.	.	.	.	.	.	.	.	.	.	.	.
.	.	.	.	.	4e/)	.	.	.	.	.	.	.	.	.	.	.	.	.	.	.	.	.	.	.	.	.
.	.	.	.	.	.	.	8qqdd/	.	.	.	.	.	.	.	.	.	.	.	.	.	.	.	.	.	.	.
2r	.	.	2A/	.	(4a/	.	4cc#\	.	2A\	.	8d\L]	.	.	.	.	.	.	.	.	.	.	.	.	.	.	.
.	.	.	.	.	.	.	.	.	.	.	8c#\	-au-	.	.	.	.	.	.	.	.	.	.	.	.	.	.
.	.	.	.	.	.	.	8qqb/	.	.	.	.	.	.	.	.	.	.	.	.	.	.	.	.	.	.	.
.	.	.	.	.	4e/)	.	4a\	.	.	.	8B\	.	.	.	.	.	.	.	.	.	.	.	.	.	.	.
.	.	.	.	.	.	.	.	.	.	.	8A\J	.	.	.	.	.	.	.	.	.	.	.	.	.	.	.
!LO:LB:g=original	!	!	!	!	!LO:LB:g=original	!	!	!	!	!	!	!	!	!	!	!	!	!	!	!	!	!	!	!	!	!
=47	=47	=47	=47	=47	=47	=47	=47	=47	=47	=47	=47	=47	=47	=47	=47	=47	=47	=47	=47	=47	=47	=47	=47	=47	=47	=47
.	.	.	.	.	.	.	8qqa/	.	.	.	8qqA/	.	.	.	.	.	.	.	.	.	.	.	.	.	.	.
2EE/	.	.	1e 1B	1.ryy	(4d/	.	1g#	.	1D	-au-	1G#	.	.	.	1.r	.	1.r	.	.	.	.	.	.	.	.	1.ryy
.	.	.	.	.	4e/)	.	.	.	.	.	.	.	.	.	.	.	.	.	.	.	.	.	.	.	.	.
2r	.	.	.	.	(4d/	.	.	.	.	.	.	.	.	.	.	.	.	.	.	.	.	.	.	.	.	.
.	.	.	.	.	4e/)	.	.	.	.	.	.	.	.	.	.	.	.	.	.	.	.	.	.	.	.	.
2r	.	.	2c#\	.	(4c#/	.	2a/	.	2C#\	-di	2A\	-di	.	.	.	.	.	.	.	.	.	.	.	.	.	.
.	.	.	.	.	4e/)	.	.	.	.	.	.	.	.	.	.	.	.	.	.	.	.	.	.	.	.	.
=48	=48	=48	=48	=48	=48	=48	=48	=48	=48	=48	=48	=48	=48	=48	=48	=48	=48	=48	=48	=48	=48	=48	=48	=48	=48	=48
2EE/	.	.	2E/	1.ryy	(4g#/	.	2b\	.	2G#\	ex-	2B\	au-	.	.	1.r	.	1.r	.	.	.	.	.	.	.	.	1.ryy
.	.	.	.	.	4e/)	.	.	.	.	.	.	.	.	.	.	.	.	.	.	.	.	.	.	.	.	.
2r	.	.	2r	.	(4a/	.	2cc#\	.	2A\	.	2c#\	.	.	.	.	.	.	.	.	.	.	.	.	.	.	.
.	.	.	.	.	4e/)	.	.	.	.	.	.	.	.	.	.	.	.	.	.	.	.	.	.	.	.	.
2E\	.	.	2D/	.	(4b/	.	2dd\	.	2B\	.	2d\	.	.	.	.	.	.	.	.	.	.	.	.	.	.	.
.	.	.	.	.	4e/)	.	.	.	.	.	.	.	.	.	.	.	.	.	.	.	.	.	.	.	.	.
=49	=49	=49	=49	=49	=49	=49	=49	=49	=49	=49	=49	=49	=49	=49	=49	=49	=49	=49	=49	=49	=49	=49	=49	=49	=49	=49
2A\	.	5 3	2A/	1.ryy	(4cc#/	.	2ee\	.	2c#\	-au-	2e\	-di	00.r	.	1.r	.	1.r	.	.	.	.	.	.	.	.	1.ryy
.	.	.	.	.	4e/)	.	.	.	.	.	.	.	.	.	.	.	.	.	.	.	.	.	.	.	.	.
2AA/	.	.	4a\	.	4a/|	.	4cc#\	.	4A\	-di	4c#\	.	.	.	.	.	.	.	.	.	.	.	.	.	.	.
.	.	.	4e\	.	4e/|	.	4r	.	4r	.	4r	.	.	.	.	.	.	.	.	.	.	.	.	.	.	.
2r	.	.	4c#\	.	4c#/|	.	2r	.	2r	.	2r	.	.	.	.	.	.	.	.	.	.	.	.	.	.	.
.	.	.	4A\	.	4A/|	.	.	.	.	.	.	.	.	.	.	.	.	.	.	.	.	.	.	.	.	.
=50	=50	=50	=50	=50	=50	=50	=50	=50	=50	=50	=50	=50	=50	=50	=50	=50	=50	=50	=50	=50	=50	=50	=50	=50	=50	=50
2EE/	.	.	1B	1.ryy	(4F#/	.	1dd	.	1G#	ex-	1d	ex-	.	.	1.r	.	1.r	.	00.r	.	00.r	00.r	.	00.r	.	1.ryy
.	.	.	.	.	4e/)	.	.	.	.	.	.	.	.	.	.	.	.	.	.	.	.	.	.	.	.	.
2r	.	.	.	.	(4F#/	.	.	.	.	.	.	.	.	.	.	.	.	.	.	.	.	.	.	.	.	.
.	.	.	.	.	4e/)	.	.	.	.	.	.	.	.	.	.	.	.	.	.	.	.	.	.	.	.	.
.	.	.	.	.	.	.	8qqdd/	.	.	.	.	.	.	.	.	.	.	.	.	.	.	.	.	.	.	.
2r	.	.	2c#\	.	(4A/	.	4cc#\	.	2A\	.	8d\L	.	.	.	.	.	.	.	.	.	.	.	.	.	.	.
.	.	.	.	.	.	.	.	.	.	.	8c#\	-au-	.	.	.	.	.	.	.	.	.	.	.	.	.	.
.	.	.	.	.	.	.	8qqb/	.	.	.	.	.	.	.	.	.	.	.	.	.	.	.	.	.	.	.
.	.	.	.	.	4e/)	.	4a\	.	.	.	8B\	.	.	.	.	.	.	.	.	.	.	.	.	.	.	.
.	.	.	.	.	.	.	.	.	.	.	8A\J	.	.	.	.	.	.	.	.	.	.	.	.	.	.	.
=51	=51	=51	=51	=51	=51	=51	=51	=51	=51	=51	=51	=51	=51	=51	=51	=51	=51	=51	=51	=51	=51	=51	=51	=51	=51	=51
.	.	.	.	.	.	.	8qqa/	.	.	.	8qqA/	.	.	.	.	.	.	.	.	.	.	.	.	.	.	.
2EE/	.	.	1e 1B	1.ryy	(4d/	.	1g#	.	1BB	-au-	1G#	.	.	.	1.r	.	1.r	.	.	.	.	.	.	.	.	1.ryy
.	.	.	.	.	4e/)	.	.	.	.	.	.	.	.	.	.	.	.	.	.	.	.	.	.	.	.	.
2r	.	.	.	.	(4d/	.	.	.	.	.	.	.	.	.	.	.	.	.	.	.	.	.	.	.	.	.
.	.	.	.	.	4e/)	.	.	.	.	.	.	.	.	.	.	.	.	.	.	.	.	.	.	.	.	.
2r	.	.	2e\	.	4c#/	.	2a/	.	2C#/	-di	2A\	-di	.	.	.	.	.	.	.	.	.	.	.	.	.	.
.	.	.	.	.	4e/	.	.	.	.	.	.	.	.	.	.	.	.	.	.	.	.	.	.	.	.	.
=52	=52	=52	=52	=52	=52	=52	=52	=52	=52	=52	=52	=52	=52	=52	=52	=52	=52	=52	=52	=52	=52	=52	=52	=52	=52	=52
2D\	.	.	2f#\	1.ryy	(4a/	.	(4cc#\	.	2D/	ex-	4c#\	ex-	.	.	1.r	.	1.r	.	.	.	.	.	.	.	.	1.ryy
.	.	.	.	.	4d/)	.	4b\)	.	.	.	4B\	.	.	.	.	.	.	.	.	.	.	.	.	.	.	.
2E\	.	X 4	2e\	.	(4c#/	.	2a\	.	2C#/	-au-	2A\	-au-	.	.	.	.	.	.	.	.	.	.	.	.	.	.
.	.	.	.	.	4e/)	.	.	.	.	.	.	.	.	.	.	.	.	.	.	.	.	.	.	.	.	.
2EE/	.	X 3	2e\	.	(4B/	.	2g#\	.	2BB/	-di	2G#\	-di	.	.	.	.	.	.	.	.	.	.	.	.	.	.
.	.	.	.	.	4e/)	.	.	.	.	.	.	.	.	.	.	.	.	.	.	.	.	.	.	.	.	.
!	!	!	!	!	!	!	!	!	!	!	!LO:LB:g=original	!	!	!	!	!	!	!	!	!	!	!	!	!	!	!
=53	=53	=53	=53	=53	=53	=53	=53	=53	=53	=53	=53	=53	=53	=53	=53	=53	=53	=53	=53	=53	=53	=53	=53	=53	=53	=53
2AA/	.	X 3	2A/	1.ryy	4c#/	.	(1ee	.	1c#	nos	1e	nos	0.r	.	1.r	.	1.r	.	.	.	.	.	.	.	.	1.ryy
.	.	.	.	.	4e/	.	.	.	.	.	.	.	.	.	.	.	.	.	.	.	.	.	.	.	.	.
2r	.	.	2r	.	4c#/	.	.	.	.	.	.	.	.	.	.	.	.	.	.	.	.	.	.	.	.	.
.	.	.	.	.	4e/	.	.	.	.	.	.	.	.	.	.	.	.	.	.	.	.	.	.	.	.	.
2AA/	.	X 3	2A/	.	4B/	.	4dd\	.	4B\	.	(4d\	.	.	.	.	.	.	.	.	.	.	.	.	.	.	.
.	.	.	.	.	4A/	.	4cc#\)	.	4A\	.	4c#\)	.	.	.	.	.	.	.	.	.	.	.	.	.	.	.
!	!	!	!LO:LB:g=original	!	!	!	!LO:LB:g=original	!	!LO:LB:g=original	!	!	!	!	!	!	!	!	!	!	!	!	!	!	!	!	!
=54	=54	=54	=54	=54	=54	=54	=54	=54	=54	=54	=54	=54	=54	=54	=54	=54	=54	=54	=54	=54	=54	=54	=54	=54	=54	=54
2D\	.	.	(2d\	1.ryy	(4A/	.	(4cc#\	.	4E\	do-	4c#\	do-	.	.	1.r	.	1.r	.	0.r	.	0.r	0.r	.	0.r	.	1.ryy
.	.	.	.	.	4B/)	.	4b\)	.	4D\	.	4B\	.	.	.	.	.	.	.	.	.	.	.	.	.	.	.
2E\	.	.	2e\)	.	2c#/	.	2a/	.	2C#/	-mi-	2A\	.	.	.	.	.	.	.	.	.	.	.	.	.	.	.
2EE/	.	.	2e\	.	2B/	.	2g#/	.	2BB/	.	2G#\	-mi-	.	.	.	.	.	.	.	.	.	.	.	.	.	.
=55	=55	=55	=55	=55	=55	=55	=55	=55	=55	=55	=55	=55	=55	=55	=55	=55	=55	=55	=55	=55	=55	=55	=55	=55	=55	=55
2AA/	.	.	2e\	1.ryy	2c#/	.	2a/	.	2AA/	-ne	2A\	-ne	1.r	.	1.r	.	1.r	.	.	.	.	.	.	.	.	1.ryy
4A\|	.	.	4a\	.	2r	.	2r	.	2r	.	2r	.	.	.	.	.	.	.	.	.	.	.	.	.	.	.
4Gn\|	.	.	4gn\	.	.	.	.	.	.	.	.	.	.	.	.	.	.	.	.	.	.	.	.	.	.	.
4F#\|	.	.	4f#\	.	2r	.	2r	.	2r	.	2r	.	.	.	.	.	.	.	.	.	.	.	.	.	.	.
4E\|	.	.	4e\	.	.	.	.	.	.	.	.	.	.	.	.	.	.	.	.	.	.	.	.	.	.	.
*kcancel	*	*	*kcancel	*	*kcancel	*	*kcancel	*	*kcancel	*	*kcancel	*	*kcancel	*	*kcancel	*	*	*	*	*	*	*	*	*	*	*
!	!	!	!	!	!LO:LB:g=original	!	!	!	!	!	!	!	!	!	!	!	!	!LO:LB:g=original	!	!LO:LB:g=original	!LO:LB:g=original	!	!	!	!	!
=56	=56	=56	=56	=56	=56	=56	=56	=56	=56	=56	=56	=56	=56	=56	=56	=56	=56	=56	=56	=56	=56	=56	=56	=56	=56	=56
*	*	*	*	*	*	*	*	*	*	*	*	*	*2\right	*	*2\right	*	*	*	*ITrd-1c-2	*	*ITrd-1c-2	*	*	*	*	*
*k[f#c#]	*	*	*k[f#c#]	*k[f#c#]	*k[f#c#]	*	*k[f#c#]	*	*k[f#c#]	*	*k[f#c#]	*	*k[f#c#]	*	*k[f#c#]	*	*k[f#c#]	*	*k[f#c#]	*	*k[f#c#]	*k[f#c#]	*	*k[f#c#]	*	*k[f#c#]
!	!	!	!	!	!	!	!	!	!	!	!	!	!	!	!	!	!LO:TX:t=P:problem=brak znaków przykluczowych	!	!LO:TX:a:i:t=Clarino in D.	!	!LO:TX:t=P:problem=zmiana instrumentu oraz stroju [in D.]	!	!	!	!	!
!LO:TX:b:i:t=Tutti	!	!	!	!	!LO:TX:a:i:t=T&colon;	!	!LO:TX:a:i:t=T&colon;	!	!	!	!	!	!	!	!LO:TX:a:i:t=T&colon;	!	!LO:TX:a:i:t=Adagio	!	!LO:TX:t=P:problem=zmiana instrumentu oraz stroju [in D.]	!	!LO:TX:a:i:t=Clarino in D.	!LO:TX:a:i:t=Tutti	!	!LO:TX:a:i:t=T&colon;	!LO:DY:b:t=for	!
!	!	!	!	!	!	!	!	!	!	!	!	!	!	!	!LO:TX:a:t=P:problem=w  źródle kolejność i wysokość znaków przykluczowych - cc# f#	!	!	!	!	!	!	!	!	!	!	!
!	!	!	!	!	!	!LO:DY:b:t=for:rj	!	!LO:DY:b:t=for	!	!	!	!	!	!	!	!	!	!	!	!	!	!	!	!	!	!
!	!	!	!	!	!	!	!	!	!	!	!	!	!	!	!	!	!	!	!	!	!	!	!LO:DY:b:t=for	!	!	!
1D	.	X 3	1a 1d	1.ryy	1f#	f	1dd	f	1D	A-	1A	A-	1f#	A-	1dd	A-	1D	.	1f#	.	1dd	1f#	f	1dd	f	1.ryy
2AA/	.	5 3	2a 2e\	.	2cc#\	.	2ee\	.	2A\	-gnus	2c#\	-gnus	2a\	-gnus	2ee\	-gnus	2AA/	.	2a/	.	2ee\	2cc#\	.	2ee\	.	.
!LO:LB:g=original	!	!	!	!	!	!	!	!	!	!	!	!	!	!	!	!	!	!	!	!	!	!	!	!	!	!
=57	=57	=57	=57	=57	=57	=57	=57	=57	=57	=57	=57	=57	=57	=57	=57	=57	=57	=57	=57	=57	=57	=57	=57	=57	=57	=57
.	.	.	.	.	.	.	.	.	.	.	.	.	.	.	8qqgg/	.	.	.	.	.	.	.	.	.	.	.
2D\	.	X 3	2a 2d\	1.ryy	2dd\	.	2ff# 2a\|	.	2d\	de-	2d\	de-	2a\	De-	2ff#\	de-	2D\	.	2dd\	.	2ff#\	2dd\	.	2ff#\	.	1.ryy
4A\	.	5 3	4a 4A\	.	2cc#\	.	2ee 2a\|	.	4A\	-i	4c#\	-i	4a\	-i	4ee\	-i	4AA/	.	4a/	.	4ee\	4cc#\	.	4ee\	.	.
4r	.	.	4r	.	.	.	.	.	4r	.	4r	.	4r	.	4r	.	4r	.	4r	.	4r	4r	.	4r	.	.
2r	.	.	2r	.	2r	.	2r	.	2r	.	2r	.	2r	.	2r	.	2r	.	2r	.	2r	2r	.	2r	.	.
=58	=58	=58	=58	=58	=58	=58	=58	=58	=58	=58	=58	=58	=58	=58	=58	=58	=58	=58	=58	=58	=58	=58	=58	=58	=58	=58
!	!	!	!	!	!	!LO:DY:b:t=po.	!	!LO:DY:b:t=po	!	!	!	!	!	!	!	!	!	!	!	!	!	!	!	!	!	!
2r	.	.	2r	1.ryy	(4cc#\	p	(4ee\	p	2r	.	2r	.	2r	.	2r	.	2r	.	2r	.	2r	2r	.	2r	.	1.ryy
.	.	.	.	.	4dd\	.	4ff#\	.	.	.	.	.	.	.	.	.	.	.	.	.	.	.	.	.	.	.
2r	.	.	2r	.	4ee\)	.	4gg\)	.	2r	.	2r	.	2r	.	2r	.	2r	.	2r	.	2r	4r	.	4r	.	.
!	!	!	!	!	!	!	!	!	!	!	!	!	!	!	!	!	!	!	!	!LO:DY:b:t=po.	!	!	!	!	!	!
.	.	.	.	.	4g/|>	.	4ee\|	.	.	.	.	.	.	.	.	.	.	.	.	p	.	4g/|	.	4ee\|	p	.
!	!	!	!	!	!	!	!	!	!	!	!LO:SIC:v:s=qui	!	!	!	!LO:SIC:v:s=qui	!	!	!	!	!	!	!	!	!	!	!
!	!	!	!	!	!	!	!	!	!	!	!	!	!	!	!	!	!	!LO:DY:b:t=po	!	!	!	!	!	!	!	!
2AA/	.	.	2a\	.	4f#/|>	.	4dd\|	.	2A\	qui	2A\	qoi	4f#\	qui	(4dd\	qoi	2AA/	p	4f#/	.	4dd\	4f#/|	.	4dd\|	.	.
.	.	.	.	.	4e/|>	.	4cc#\|	.	.	.	.	.	4e\	.	4cc#\)	.	.	.	4a/	.	4ee\	4e'/	.	4cc#\|	.	.
!	!	!	!	!	!	!	!	!	!	!	!	!	!	!	!LO:LB:g=original	!	!	!	!	!	!	!	!	!	!	!
=59	=59	=59	=59	=59	=59	=59	=59	=59	=59	=59	=59	=59	=59	=59	=59	=59	=59	=59	=59	=59	=59	=59	=59	=59	=59	=59
!	!	!	!	!	!	!LO:DY:b:t=for	!	!LO:DY:b:t=for	!	!	!	!	!	!	!	!	!	!	!	!	!	!	!	!	!LO:DY:b:t=for	!
!	!	!	!	!	!	!	!	!	!	!	!	!	!	!	!	!	!	!LO:DY:b:t=for	!	!LO:DY:b:t=for	!	!	!	!	!	!
2D/	.	.	2a 2d\	1.ryy	(>4f#/	f	(4dd\	f	2d\	tol-	4A\	tol-	4f#\	to-	4dd\	tol-	2D\	f	2dd\	f	2ff#\	(4f#/	.	(4dd\	f	1.ryy
.	.	.	.	.	4dd\)	.	4ff#\)	.	.	.	4d\	.	4a\	.	4ff#\	.	.	.	.	.	.	4dd\)	.	4ff#\)	.	.
2AA/	.	.	2a\	.	2cc#\	.	2ee 2a\	.	2A\	-lis	2c#\	-lis	2a\	-lis	2ee\	-lis	4AA/	.	4a/	.	4ee\	2cc#\	.	2ee\	.	.
.	.	.	.	.	.	.	.	.	.	.	.	.	.	.	.	.	4r	.	4r	.	4r	.	.	.	.	.
2r	.	.	2r	.	2r	.	2r	.	2r	.	2r	.	2r	.	2r	.	2r	.	2r	.	2r	2r	.	2r	.	.
!	!	!	!	!	!	!	!	!	!	!	!LO:LB:g=original	!	!LO:LB:g=original	!	!	!	!	!	!	!	!	!	!	!	!	!
=60	=60	=60	=60	=60	=60	=60	=60	=60	=60	=60	=60	=60	=60	=60	=60	=60	=60	=60	=60	=60	=60	=60	=60	=60	=60	=60
!	!	!	!	!	!	!LO:DY:b:t=po	!	!	!	!	!	!	!	!	!	!	!	!	!	!	!	!	!	!	!	!
2r	.	.	2r	1.ryy	(4cc#\	p	(4ee\	.	2r	.	2r	.	1r	.	2r	.	2r	.	2r	.	2r	2r	.	2r	.	1.ryy
!	!	!	!	!	!	!	!	!LO:DY:b:t=po	!	!	!	!	!	!	!	!	!	!	!	!	!	!	!	!	!	!
.	.	.	.	.	4dd\	.	4ff#\	p	.	.	.	.	.	.	.	.	.	.	.	.	.	.	.	.	.	.
2r	.	.	2r	.	4ee\)	.	4gg\)	.	2r	.	2r	.	.	.	2r	.	2r	.	2r	.	2r	4r	.	4r	.	.
!	!	!	!	!	!	!	!	!	!	!	!	!	!	!	!	!	!	!	!	!	!	!	!	!	!LO:DY:b	!
.	.	.	.	.	4g/|>	.	4ee\|	.	.	.	.	.	.	.	.	.	.	.	.	.	.	4g/	.	4ee\|	p	.
!	!	!	!	!	!	!	!	!	!	!	!	!	!LO:SIC:v:s=pec-	!	!	!	!	!	!	!	!	!	!	!	!	!
!	!	!	!	!	!	!	!	!	!	!	!	!	!	!	!	!	!	!LO:DY:b:t=po	!	!LO:DY:b:t=po	!	!	!	!	!	!
2AA/	.	.	2a\	.	4f#/|>	.	(4dd\	.	2A\	pec-	2A\	pec-	2a\	pe-	2a\	pec-	2AA/	p	4f#/	p	4dd\	4f#/	.	4dd\'	.	.
.	.	.	.	.	4e/|>	.	4cc#\)	.	.	.	.	.	.	.	.	.	.	.	4a/	.	4ee\	4e/	.	4cc#\|	.	.
!	!	!	!	!	!	!	!	!	!	!	!	!	!	!	!	!	!LO:LB:g=original	!	!	!	!	!	!	!	!	!
=61	=61	=61	=61	=61	=61	=61	=61	=61	=61	=61	=61	=61	=61	=61	=61	=61	=61	=61	=61	=61	=61	=61	=61	=61	=61	=61
1D	.	3 5_	1d	1.ryy	1.a	.	(1ff#	.	1D	-ca-	1A	-ca-	1a	-ca-	1ff#	-ca-	1D	.	1dd	.	1ff#	1a	.	1ff#	.	1.ryy
2C#/	.	3 _	2c#\	.	.	.	2ee\	.	2C#/	-ta	2A\	-ta	2a\	-ta	2ee\	-ta	2AA/	.	2a/	.	2ee\	2a/	.	2ee\	.	.
=62	=62	=62	=62	=62	=62	=62	=62	=62	=62	=62	=62	=62	=62	=62	=62	=62	=62	=62	=62	=62	=62	=62	=62	=62	=62	=62
1.BB	.	3 _	1.B	1.ryy	1a	.	1.dd	.	1.BB	mun-	1A	mun-	1a	mun-	1.dd	mun-	1.r	.	1.ee	.	1.ee	1a	.	1.dd	.	1.ryy
.	.	.	.	.	2g#X/	.	.	.	.	.	2G#X/	.	2g#X\	.	.	.	.	.	.	.	.	2g#X/	.	.	.	.
=63	=63	=63	=63	=63	=63	=63	=63	=63	=63	=63	=63	=63	=63	=63	=63	=63	=63	=63	=63	=63	=63	=63	=63	=63	=63	=63
2AA/	.	3 _	2e 2A/	1.ryy	2a/	.	2cc#\)	.	2AA/	-di	2A\	-di	2a\	-di	2cc#\	-di	2AA/	.	2a/	.	2ee\	2a/	.	2cc#\	.	1.ryy
!	!	!	!	!	!	!	!LO:N:vis=2	!	!	!	!	!	!LO:N:vis=2	!	!	!	!	!	!	!	!	!	!	!	!	!
2r	.	X X	2r	.	2r	.	1r	.	2r	.	2r	.	1r	.	2r	.	2r	.	2r	.	2r	2r	.	2r	.	.
2r	.	.	2r	.	2r	.	.	.	2r	.	2r	.	.	.	2r	.	2r	.	2r	.	2r	2r	.	2r	.	.
!	!	!	!	!	!	!	!	!	!	!	!	!	!	!	!	!	!	!	!	!	!	!	!	!LO:TX:b:i:t=VS&colon;	!	!
==	==	==	==	==	==	==	==	==	==	==	==	==	==	==	==	==	==	==	==	==	==	==	==	==	==	==
*-	*-	*-	*-	*-	*-	*-	*-	*-	*-	*-	*-	*-	*-	*-	*-	*-	*-	*-	*-	*-	*-	*-	*-	*-	*-	*-
!!!system-decoration: [(g1)][(g2)][(s6)][(g3)][(g4)][(s15)]
!!!RDF**kern: | = vertical stroke
!!!RDF**kern: > = above
!!!RDF**kern: < = below
!!!ENC: Andrzej Kubiczek
!!!END: 2020-10-18
!!!EED: Antoni Szymański
!!!EEV: 2022-04-09
